;FLAVOR:Marlin
;TIME:2738
;Filament used: 0.380645m
;Layer height: 0.1
;Generated with Cura_SteamEngine master
M104 S200
M109 S200
G28 ;Home
G1 Z15.0 F6000 ;Move the platform down 15mm
;Prime the extruder
G92 E0
G1 F200 E3
G92 E0
;LAYER_COUNT:418
;LAYER:0
M107
G0 F3600 X42.311 Y39.173 Z0.3
;TYPE:SKIRT
G1 F1800 X42.855 Y38.6 E0.01486
G1 X43.454 Y38.086 E0.02971
G1 X44.102 Y37.634 E0.04457
G1 X44.792 Y37.25 E0.05942
G1 X45.517 Y36.938 E0.07427
G1 X46.27 Y36.701 E0.08912
G1 X47.044 Y36.541 E0.10399
G1 X47.829 Y36.46 E0.11883
G1 X48.233 Y36.45 E0.12643
G1 X52.1 Y36.45 E0.19918
G1 X52.889 Y36.49 E0.21404
G1 X53.669 Y36.609 E0.22888
G1 X54.434 Y36.807 E0.24374
G1 X55.174 Y37.081 E0.25859
G1 X55.883 Y37.429 E0.27344
G1 X56.554 Y37.847 E0.28831
G1 X57.178 Y38.33 E0.30316
G1 X57.751 Y38.873 E0.31801
G1 X58.266 Y39.472 E0.33286
G1 X58.717 Y40.12 E0.34772
G1 X59.101 Y40.811 E0.36259
G1 X59.413 Y41.536 E0.37743
G1 X59.65 Y42.289 E0.39228
G1 X59.809 Y43.063 E0.40715
G1 X59.89 Y43.848 E0.42199
G1 X59.9 Y44.248 E0.42952
G1 X59.901 Y48.248 E0.50476
G1 X59.861 Y49.037 E0.51962
G1 X59.742 Y49.817 E0.53446
G1 X59.544 Y50.582 E0.54933
G1 X59.27 Y51.323 E0.56419
G1 X58.923 Y52.032 E0.57904
G1 X58.506 Y52.702 E0.59388
G1 X58.023 Y53.327 E0.60874
G1 X57.479 Y53.9 E0.6236
G1 X56.88 Y54.414 E0.63845
G1 X56.232 Y54.866 E0.65331
G1 X55.542 Y55.25 E0.66816
G1 X54.817 Y55.562 E0.68301
G1 X54.064 Y55.799 E0.69786
G1 X53.29 Y55.959 E0.71273
G1 X52.505 Y56.04 E0.72757
G1 X52.101 Y56.05 E0.73517
G1 X48.234 Y56.05 E0.80791
G1 X47.445 Y56.01 E0.82277
G1 X46.665 Y55.891 E0.83762
G1 X45.9 Y55.693 E0.85248
G1 X45.16 Y55.419 E0.86732
G1 X44.451 Y55.071 E0.88218
G1 X43.78 Y54.653 E0.89705
G1 X43.156 Y54.17 E0.91189
G1 X42.583 Y53.627 E0.92674
G1 X42.068 Y53.028 E0.9416
G1 X41.617 Y52.38 E0.95645
G1 X41.233 Y51.689 E0.97132
G1 X40.921 Y50.964 E0.98617
G1 X40.684 Y50.211 E1.00102
G1 X40.525 Y49.437 E1.01588
G1 X40.444 Y48.652 E1.03073
G1 X40.434 Y48.252 E1.03826
G1 X40.433 Y44.252 E1.1135
G1 X40.473 Y43.463 E1.12836
G1 X40.592 Y42.683 E1.1432
G1 X40.79 Y41.918 E1.15806
G1 X41.064 Y41.177 E1.17293
G1 X41.411 Y40.468 E1.18777
G1 X41.828 Y39.798 E1.20262
G1 X42.311 Y39.173 E1.21748
G0 F3600 X42.707 Y39.328
G1 F1800 X43.248 Y38.781 E1.23195
G1 X43.843 Y38.293 E1.24642
G1 X44.485 Y37.87 E1.26089
G1 X45.167 Y37.515 E1.27535
G1 X45.883 Y37.233 E1.28982
G1 X46.624 Y37.027 E1.30429
G1 X47.382 Y36.899 E1.31875
G1 X48.233 Y36.85 E1.33479
G1 X52.1 Y36.85 E1.40753
G1 X52.868 Y36.89 E1.42199
G1 X53.628 Y37.009 E1.43646
G1 X54.371 Y37.207 E1.45093
G1 X55.09 Y37.481 E1.4654
G1 X55.776 Y37.828 E1.47986
G1 X56.423 Y38.244 E1.49433
G1 X57.023 Y38.725 E1.50879
G1 X57.57 Y39.266 E1.52327
G1 X58.058 Y39.861 E1.53774
G1 X58.481 Y40.503 E1.5522
G1 X58.836 Y41.186 E1.56668
G1 X59.117 Y41.901 E1.58113
G1 X59.323 Y42.643 E1.59562
G1 X59.451 Y43.401 E1.61008
G1 X59.5 Y44.248 E1.62604
G1 X59.501 Y48.248 E1.70128
G1 X59.461 Y49.016 E1.71575
G1 X59.342 Y49.776 E1.73022
G1 X59.144 Y50.519 E1.74468
G1 X58.871 Y51.238 E1.75915
G1 X58.524 Y51.925 E1.77363
G1 X58.108 Y52.572 E1.7881
G1 X57.627 Y53.172 E1.80256
G1 X57.086 Y53.719 E1.81703
G1 X56.491 Y54.207 E1.83151
G1 X55.849 Y54.63 E1.84597
G1 X55.167 Y54.985 E1.86043
G1 X54.451 Y55.267 E1.87491
G1 X53.71 Y55.473 E1.88937
G1 X52.952 Y55.601 E1.90384
G1 X52.101 Y55.65 E1.91987
G1 X48.234 Y55.65 E1.99261
G1 X47.466 Y55.61 E2.00708
G1 X46.706 Y55.491 E2.02155
G1 X45.963 Y55.293 E2.03601
G1 X45.244 Y55.019 E2.05048
G1 X44.558 Y54.672 E2.06494
G1 X43.911 Y54.256 E2.07941
G1 X43.311 Y53.775 E2.09388
G1 X42.764 Y53.234 E2.10835
G1 X42.276 Y52.639 E2.12283
G1 X41.853 Y51.997 E2.13729
G1 X41.498 Y51.314 E2.15177
G1 X41.217 Y50.599 E2.16622
G1 X41.011 Y49.857 E2.1807
G1 X40.883 Y49.099 E2.19516
G1 X40.834 Y48.252 E2.21112
G1 X40.833 Y44.252 E2.28637
G1 X40.873 Y43.484 E2.30083
G1 X40.992 Y42.724 E2.3153
G1 X41.19 Y41.981 E2.32977
G1 X41.463 Y41.262 E2.34423
G1 X41.81 Y40.575 E2.35871
G1 X42.226 Y39.928 E2.37318
G1 X42.707 Y39.328 E2.38764
G0 F3600 X43.102 Y39.488
G1 F1800 X43.64 Y38.968 E2.40172
G1 X44.23 Y38.508 E2.41579
G1 X44.866 Y38.113 E2.42988
G1 X45.54 Y37.789 E2.44394
G1 X46.244 Y37.538 E2.458
G1 X46.972 Y37.365 E2.47208
G1 X47.714 Y37.269 E2.48615
G1 X48.233 Y37.25 E2.49592
G1 X52.1 Y37.25 E2.56866
G1 X52.847 Y37.29 E2.58273
G1 X53.585 Y37.409 E2.59679
G1 X54.307 Y37.607 E2.61088
G1 X55.003 Y37.88 E2.62494
G1 X55.666 Y38.227 E2.63902
G1 X56.289 Y38.642 E2.6531
G1 X56.863 Y39.121 E2.66716
G1 X57.384 Y39.658 E2.68123
G1 X57.843 Y40.248 E2.69529
G1 X58.238 Y40.884 E2.70938
G1 X58.562 Y41.558 E2.72344
G1 X58.812 Y42.263 E2.73752
G1 X58.986 Y42.991 E2.7516
G1 X59.081 Y43.733 E2.76567
G1 X59.1 Y44.248 E2.77536
G1 X59.101 Y48.248 E2.8506
G1 X59.061 Y48.995 E2.86467
G1 X58.942 Y49.734 E2.87875
G1 X58.745 Y50.455 E2.89281
G1 X58.471 Y51.152 E2.9069
G1 X58.125 Y51.815 E2.92097
G1 X57.71 Y52.437 E2.93503
G1 X57.232 Y53.012 E2.9491
G1 X56.694 Y53.532 E2.96317
G1 X56.104 Y53.992 E2.97725
G1 X55.468 Y54.387 E2.99133
G1 X54.794 Y54.711 E3.0054
G1 X54.09 Y54.962 E3.01946
G1 X53.362 Y55.135 E3.03353
G1 X52.62 Y55.231 E3.04761
G1 X52.101 Y55.25 E3.05738
G1 X48.234 Y55.25 E3.13012
G1 X47.487 Y55.21 E3.14419
G1 X46.749 Y55.091 E3.15825
G1 X46.027 Y54.893 E3.17233
G1 X45.331 Y54.62 E3.18639
G1 X44.668 Y54.273 E3.20047
G1 X44.045 Y53.858 E3.21455
G1 X43.471 Y53.379 E3.22861
G1 X42.95 Y52.842 E3.24269
G1 X42.491 Y52.252 E3.25675
G1 X42.096 Y51.616 E3.27083
G1 X41.772 Y50.942 E3.2849
G1 X41.522 Y50.237 E3.29897
G1 X41.348 Y49.509 E3.31305
G1 X41.253 Y48.767 E3.32712
G1 X41.234 Y48.252 E3.33682
G1 X41.233 Y44.252 E3.41206
G1 X41.273 Y43.505 E3.42613
G1 X41.392 Y42.766 E3.44021
G1 X41.589 Y42.045 E3.45427
G1 X41.863 Y41.348 E3.46836
G1 X42.209 Y40.685 E3.48242
G1 X42.624 Y40.063 E3.49649
G1 X43.102 Y39.488 E3.51056
G0 F3600 X43.497 Y39.653
G1 F1800 X44.031 Y39.16 E3.52423
G1 X44.616 Y38.73 E3.53788
G1 X45.244 Y38.365 E3.55155
G1 X45.909 Y38.073 E3.56521
G1 X46.602 Y37.855 E3.57887
G1 X47.315 Y37.714 E3.59255
G1 X48.233 Y37.65 E3.60986
G1 X52.1 Y37.65 E3.6826
G1 X52.825 Y37.69 E3.69625
G1 X53.542 Y37.809 E3.70993
G1 X54.241 Y38.007 E3.72359
G1 X54.914 Y38.28 E3.73725
G1 X55.553 Y38.625 E3.75091
G1 X56.15 Y39.039 E3.76458
G1 X56.698 Y39.515 E3.77823
G1 X57.191 Y40.049 E3.7919
G1 X57.621 Y40.634 E3.80556
G1 X57.985 Y41.263 E3.81923
G1 X58.278 Y41.928 E3.8329
G1 X58.496 Y42.621 E3.84657
G1 X58.636 Y43.333 E3.86022
G1 X58.7 Y44.248 E3.87747
G1 X58.701 Y48.248 E3.95271
G1 X58.661 Y48.974 E3.96639
G1 X58.542 Y49.69 E3.98004
G1 X58.345 Y50.389 E3.9937
G1 X58.072 Y51.062 E4.00736
G1 X57.727 Y51.701 E4.02102
G1 X57.313 Y52.299 E4.03471
G1 X56.837 Y52.847 E4.04836
G1 X56.303 Y53.34 E4.06203
G1 X55.718 Y53.77 E4.07569
G1 X55.09 Y54.135 E4.08935
G1 X54.425 Y54.427 E4.10301
G1 X53.732 Y54.645 E4.11668
G1 X53.019 Y54.786 E4.13035
G1 X52.101 Y54.85 E4.14766
G1 X48.234 Y54.85 E4.2204
G1 X47.509 Y54.81 E4.23406
G1 X46.792 Y54.691 E4.24773
G1 X46.093 Y54.493 E4.2614
G1 X45.42 Y54.22 E4.27506
G1 X44.781 Y53.875 E4.28872
G1 X44.184 Y53.461 E4.30238
G1 X43.636 Y52.985 E4.31604
G1 X43.143 Y52.451 E4.32971
G1 X42.713 Y51.866 E4.34337
G1 X42.349 Y51.237 E4.35704
G1 X42.056 Y50.572 E4.37071
G1 X41.838 Y49.879 E4.38437
G1 X41.698 Y49.167 E4.39802
G1 X41.634 Y48.252 E4.41527
G1 X41.633 Y44.252 E4.49052
G1 X41.673 Y43.526 E4.50419
G1 X41.792 Y42.81 E4.51785
G1 X41.989 Y42.111 E4.53151
G1 X42.262 Y41.438 E4.54517
G1 X42.607 Y40.799 E4.55883
G1 X43.021 Y40.201 E4.57251
G1 X43.497 Y39.653 E4.58616
G0 F3600 X43.891 Y39.824
G1 F1800 X44.421 Y39.36 E4.59941
G1 X45 Y38.96 E4.61265
G1 X45.62 Y38.627 E4.62589
G1 X46.275 Y38.367 E4.63915
G1 X46.954 Y38.183 E4.65238
G1 X47.65 Y38.077 E4.66562
G1 X48.233 Y38.05 E4.6766
G1 X52.1 Y38.05 E4.74934
G1 X52.803 Y38.09 E4.76259
G1 X53.497 Y38.209 E4.77583
G1 X54.172 Y38.407 E4.78906
G1 X54.821 Y38.679 E4.8023
G1 X55.435 Y39.024 E4.81555
G1 X56.006 Y39.435 E4.82878
G1 X56.527 Y39.909 E4.84203
G1 X56.991 Y40.439 E4.85528
G1 X57.391 Y41.018 E4.86852
G1 X57.723 Y41.639 E4.88177
G1 X57.983 Y42.293 E4.895
G1 X58.167 Y42.973 E4.90826
G1 X58.273 Y43.669 E4.9215
G1 X58.3 Y44.248 E4.9324
G1 X58.301 Y48.248 E5.00764
G1 X58.261 Y48.951 E5.02089
G1 X58.142 Y49.645 E5.03413
G1 X57.945 Y50.321 E5.04738
G1 X57.672 Y50.97 E5.06062
G1 X57.328 Y51.584 E5.07386
G1 X56.917 Y52.155 E5.0871
G1 X56.443 Y52.676 E5.10035
G1 X55.913 Y53.14 E5.1136
G1 X55.334 Y53.54 E5.12683
G1 X54.714 Y53.873 E5.14007
G1 X54.059 Y54.133 E5.15333
G1 X53.38 Y54.317 E5.16656
G1 X52.684 Y54.423 E5.1798
G1 X52.101 Y54.45 E5.19078
G1 X48.234 Y54.45 E5.26352
G1 X47.531 Y54.41 E5.27677
G1 X46.837 Y54.291 E5.29001
G1 X46.162 Y54.093 E5.30325
G1 X45.513 Y53.821 E5.31648
G1 X44.899 Y53.476 E5.32973
G1 X44.328 Y53.065 E5.34296
G1 X43.807 Y52.591 E5.35621
G1 X43.343 Y52.061 E5.36946
G1 X42.943 Y51.482 E5.3827
G1 X42.611 Y50.861 E5.39595
G1 X42.351 Y50.207 E5.40919
G1 X42.167 Y49.527 E5.42244
G1 X42.061 Y48.831 E5.43568
G1 X42.034 Y48.252 E5.44658
G1 X42.033 Y44.252 E5.52183
G1 X42.073 Y43.549 E5.53507
G1 X42.192 Y42.855 E5.54832
G1 X42.389 Y42.179 E5.56156
G1 X42.662 Y41.53 E5.57481
G1 X43.006 Y40.916 E5.58804
G1 X43.417 Y40.345 E5.60128
G1 X43.891 Y39.824 E5.61453
G0 F3600 X44.285 Y40.002
G1 F1800 X44.81 Y39.568 E5.62734
G1 X45.382 Y39.199 E5.64014
G1 X45.993 Y38.9 E5.65294
G1 X46.636 Y38.674 E5.66576
G1 X47.3 Y38.525 E5.67856
G1 X48.233 Y38.45 E5.69617
G1 X52.1 Y38.45 E5.76891
G1 X52.78 Y38.49 E5.78172
G1 X53.45 Y38.609 E5.79452
G1 X54.102 Y38.806 E5.80733
G1 X54.726 Y39.078 E5.82014
G1 X55.314 Y39.422 E5.83295
G1 X55.858 Y39.832 E5.84577
G1 X56.349 Y40.303 E5.85857
G1 X56.783 Y40.828 E5.87138
G1 X57.152 Y41.4 E5.88418
G1 X57.451 Y42.012 E5.897
G1 X57.676 Y42.654 E5.90979
G1 X57.825 Y43.319 E5.92261
G1 X57.9 Y44.249 E5.94016
G1 X57.901 Y48.249 E6.0154
G1 X57.861 Y48.928 E6.0282
G1 X57.742 Y49.599 E6.04102
G1 X57.545 Y50.25 E6.05381
G1 X57.273 Y50.875 E6.06663
G1 X56.93 Y51.463 E6.07944
G1 X56.52 Y52.006 E6.09224
G1 X56.049 Y52.498 E6.10505
G1 X55.524 Y52.932 E6.11786
G1 X54.952 Y53.301 E6.13067
G1 X54.341 Y53.6 E6.14346
G1 X53.698 Y53.826 E6.15628
G1 X53.034 Y53.975 E6.16908
G1 X52.101 Y54.05 E6.18669
G1 X48.234 Y54.05 E6.25943
G1 X47.554 Y54.01 E6.27224
G1 X46.884 Y53.891 E6.28504
G1 X46.232 Y53.694 E6.29786
G1 X45.608 Y53.422 E6.31066
G1 X45.02 Y53.078 E6.32347
G1 X44.476 Y52.668 E6.33629
G1 X43.985 Y52.197 E6.34909
G1 X43.551 Y51.672 E6.3619
G1 X43.182 Y51.1 E6.3747
G1 X42.883 Y50.488 E6.38752
G1 X42.658 Y49.846 E6.40031
G1 X42.509 Y49.181 E6.41313
G1 X42.434 Y48.251 E6.43068
G1 X42.433 Y44.251 E6.50593
G1 X42.473 Y43.572 E6.51872
G1 X42.592 Y42.901 E6.53154
G1 X42.789 Y42.25 E6.54433
G1 X43.061 Y41.625 E6.55715
G1 X43.404 Y41.037 E6.56996
G1 X43.814 Y40.494 E6.58276
G1 X44.285 Y40.002 E6.59557
G0 F3600 X44.677 Y40.186
G1 F1800 X45.197 Y39.785 E6.60792
G1 X45.761 Y39.449 E6.62027
G1 X46.363 Y39.184 E6.63264
G1 X46.992 Y38.995 E6.645
G1 X47.639 Y38.883 E6.65735
G1 X48.233 Y38.85 E6.66854
G1 X52.1 Y38.85 E6.74128
G1 X52.756 Y38.89 E6.75364
G1 X53.402 Y39.009 E6.766
G1 X54.029 Y39.206 E6.77836
G1 X54.627 Y39.478 E6.79072
G1 X55.188 Y39.82 E6.80308
G1 X55.703 Y40.228 E6.81544
G1 X56.165 Y40.695 E6.82779
G1 X56.566 Y41.215 E6.84015
G1 X56.902 Y41.779 E6.8525
G1 X57.166 Y42.381 E6.86486
G1 X57.356 Y43.01 E6.87722
G1 X57.467 Y43.657 E6.88957
G1 X57.5 Y44.249 E6.90072
G1 X57.501 Y48.249 E6.97596
G1 X57.461 Y48.904 E6.98831
G1 X57.342 Y49.55 E7.00066
G1 X57.145 Y50.177 E7.01303
G1 X56.874 Y50.776 E7.02539
G1 X56.532 Y51.337 E7.03775
G1 X56.124 Y51.852 E7.05011
G1 X55.657 Y52.314 E7.06247
G1 X55.137 Y52.715 E7.07482
G1 X54.573 Y53.051 E7.08717
G1 X53.971 Y53.316 E7.09954
G1 X53.342 Y53.505 E7.1119
G1 X52.695 Y53.617 E7.12425
G1 X52.101 Y53.65 E7.13544
G1 X48.234 Y53.65 E7.20818
G1 X47.578 Y53.61 E7.22054
G1 X46.932 Y53.491 E7.2329
G1 X46.305 Y53.294 E7.24526
G1 X45.707 Y53.022 E7.25762
G1 X45.146 Y52.68 E7.26998
G1 X44.631 Y52.272 E7.28234
G1 X44.169 Y51.805 E7.29469
G1 X43.768 Y51.285 E7.30705
G1 X43.432 Y50.721 E7.3194
G1 X43.168 Y50.119 E7.33176
G1 X42.978 Y49.49 E7.34412
G1 X42.867 Y48.843 E7.35647
G1 X42.834 Y48.251 E7.36762
G1 X42.833 Y44.251 E7.44286
G1 X42.873 Y43.596 E7.45521
G1 X42.992 Y42.95 E7.46756
G1 X43.189 Y42.323 E7.47993
G1 X43.46 Y41.724 E7.49229
G1 X43.802 Y41.163 E7.50465
G1 X44.21 Y40.648 E7.51701
G1 X44.677 Y40.186 E7.52937
G0 F3600 X45.068 Y40.379
G1 F1800 X45.582 Y40.011 E7.54126
G1 X46.138 Y39.71 E7.55315
G1 X46.727 Y39.482 E7.56503
G1 X47.341 Y39.33 E7.57693
G1 X48.233 Y39.25 E7.59378
G1 X52.1 Y39.25 E7.66652
G1 X52.731 Y39.29 E7.67841
G1 X53.352 Y39.409 E7.69031
G1 X53.952 Y39.606 E7.70218
G1 X54.524 Y39.877 E7.71409
G1 X55.056 Y40.217 E7.72597
G1 X55.541 Y40.623 E7.73786
G1 X55.971 Y41.086 E7.74975
G1 X56.34 Y41.6 E7.76165
G1 X56.64 Y42.156 E7.77354
G1 X56.868 Y42.745 E7.78542
G1 X57.02 Y43.359 E7.79732
G1 X57.1 Y44.249 E7.81412
G1 X57.101 Y48.249 E7.88937
G1 X57.061 Y48.88 E7.90126
G1 X56.942 Y49.5 E7.91314
G1 X56.746 Y50.101 E7.92503
G1 X56.475 Y50.673 E7.93693
G1 X56.134 Y51.205 E7.94882
G1 X55.729 Y51.69 E7.96071
G1 X55.266 Y52.121 E7.9726
G1 X54.752 Y52.489 E7.9845
G1 X54.196 Y52.79 E7.99639
G1 X53.607 Y53.018 E8.00827
G1 X52.993 Y53.17 E8.02017
G1 X52.101 Y53.25 E8.03701
G1 X48.234 Y53.25 E8.10975
G1 X47.603 Y53.21 E8.12165
G1 X46.982 Y53.091 E8.13354
G1 X46.382 Y52.894 E8.14542
G1 X45.81 Y52.623 E8.15733
G1 X45.278 Y52.283 E8.1692
G1 X44.793 Y51.877 E8.1811
G1 X44.363 Y51.414 E8.19299
G1 X43.994 Y50.9 E8.20489
G1 X43.694 Y50.344 E8.21677
G1 X43.466 Y49.755 E8.22865
G1 X43.314 Y49.141 E8.24055
G1 X43.234 Y48.251 E8.25736
G1 X43.233 Y44.251 E8.3326
G1 X43.273 Y43.62 E8.3445
G1 X43.392 Y43 E8.35637
G1 X43.588 Y42.399 E8.36826
G1 X43.859 Y41.827 E8.38017
G1 X44.2 Y41.295 E8.39205
G1 X44.605 Y40.81 E8.40394
G1 X45.068 Y40.379 E8.41584
G0 F3600 X45.457 Y40.582
G1 F1800 X45.964 Y40.249 E8.42725
G1 X46.51 Y39.985 E8.43866
G1 X47.086 Y39.795 E8.45007
G1 X47.682 Y39.683 E8.46147
G1 X48.233 Y39.65 E8.47186
G1 X52.1 Y39.65 E8.5446
G1 X52.705 Y39.69 E8.556
G1 X53.299 Y39.809 E8.5674
G1 X53.873 Y40.005 E8.57881
G1 X54.416 Y40.276 E8.59022
G1 X54.919 Y40.615 E8.60163
G1 X55.372 Y41.017 E8.61303
G1 X55.769 Y41.475 E8.62443
G1 X56.102 Y41.982 E8.63584
G1 X56.366 Y42.528 E8.64725
G1 X56.555 Y43.104 E8.65865
G1 X56.667 Y43.7 E8.67006
G1 X56.7 Y44.249 E8.6804
G1 X56.701 Y48.249 E8.75564
G1 X56.661 Y48.854 E8.76705
G1 X56.542 Y49.448 E8.77844
G1 X56.346 Y50.022 E8.78985
G1 X56.076 Y50.565 E8.80126
G1 X55.737 Y51.068 E8.81267
G1 X55.335 Y51.521 E8.82406
G1 X54.877 Y51.918 E8.83546
G1 X54.37 Y52.251 E8.84687
G1 X53.824 Y52.515 E8.85828
G1 X53.248 Y52.705 E8.86969
G1 X52.652 Y52.817 E8.8811
G1 X52.101 Y52.85 E8.89148
G1 X48.234 Y52.85 E8.96422
G1 X47.629 Y52.81 E8.97563
G1 X47.035 Y52.691 E8.98702
G1 X46.461 Y52.495 E8.99843
G1 X45.918 Y52.224 E9.00985
G1 X45.415 Y51.885 E9.02126
G1 X44.962 Y51.483 E9.03265
G1 X44.565 Y51.025 E9.04405
G1 X44.232 Y50.518 E9.05546
G1 X43.968 Y49.972 E9.06687
G1 X43.779 Y49.396 E9.07827
G1 X43.667 Y48.8 E9.08968
G1 X43.634 Y48.251 E9.10003
G1 X43.633 Y44.251 E9.17527
G1 X43.673 Y43.646 E9.18667
G1 X43.792 Y43.052 E9.19807
G1 X43.988 Y42.478 E9.20948
G1 X44.258 Y41.935 E9.22089
G1 X44.597 Y41.432 E9.2323
G1 X44.999 Y40.979 E9.24369
G1 X45.457 Y40.582 E9.25509
G0 F3600 X45.845 Y40.795
G1 F1800 X46.343 Y40.499 E9.26599
G1 X46.877 Y40.275 E9.27688
G1 X47.437 Y40.126 E9.28778
G1 X48.233 Y40.05 E9.30282
G1 X52.1 Y40.05 E9.37556
G1 X52.678 Y40.09 E9.38646
G1 X53.245 Y40.209 E9.39736
G1 X53.79 Y40.405 E9.40825
G1 X54.303 Y40.674 E9.41915
G1 X54.774 Y41.011 E9.43004
G1 X55.194 Y41.41 E9.44094
G1 X55.556 Y41.863 E9.45185
G1 X55.851 Y42.361 E9.46274
G1 X56.076 Y42.895 E9.47364
G1 X56.224 Y43.455 E9.48453
G1 X56.3 Y44.249 E9.49954
G1 X56.301 Y48.249 E9.57478
G1 X56.261 Y48.827 E9.58568
G1 X56.142 Y49.394 E9.59658
G1 X55.946 Y49.939 E9.60747
G1 X55.677 Y50.452 E9.61837
G1 X55.34 Y50.923 E9.62926
G1 X54.942 Y51.344 E9.64016
G1 X54.489 Y51.705 E9.65105
G1 X53.991 Y52.001 E9.66195
G1 X53.457 Y52.225 E9.67284
G1 X52.897 Y52.374 E9.68374
G1 X52.101 Y52.45 E9.69879
