; generated by PrusaSlicer 2.1.1+win64 on 2020-03-09 at 09:49:39 UTC

; 

; external perimeters extrusion width = 0.40mm
; perimeters extrusion width = 0.40mm
; infill extrusion width = 0.40mm
; solid infill extrusion width = 0.40mm
; top infill extrusion width = 0.40mm
; support material extrusion width = 0.35mm
; first layer extrusion width = 0.40mm

M107 ; disable fan
G28 ; home all axes
G90 ; use absolute coordinates
M83 ; extruder relative mode
M140 S80 ; set bed temp
M190 S80 ; wait for bed temp
M104 S220 ; set extruder temp
M109 S220 ; wait for extruder temp
G92 E0.0
G1 X5 Y5.0 F1000.0 ; go outside print area
G1 Z0.15

G1 X60.0 E9.0  F1000.0 ; intro line

G1 X100.0 E12.5  F1000.0 ; intro line
G92 E0.0
G1 Z10

G21 ; set units to millimeters
G90 ; use absolute coordinates
M83 ; use relative distances for extrusion
; M900 K45 ; Filament gcode
;BEFORE_LAYER_CHANGE
G92 E0.0
;0.15
G1 Z0.150 F7800.000 ; move to next layer (0)
;AFTER_LAYER_CHANGE
;0.15
G1 E-1.40000 F2400.00000 ; retract
G1 Z0.350 F7800.000 ; lift Z
G1 X94.257 Y104.799 ; move to first skirt point
G1 Z0.150 ; restore layer Z
G1 E1.40000 F2400.00000 ; unretract
G1 F1200
G1 X95.915 Y103.497 E0.04835 ; skirt
G1 X96.883 Y102.936 E0.02567 ; skirt
G1 X97.862 Y102.488 E0.02471 ; skirt
G1 X98.914 Y102.122 E0.02553 ; skirt
G1 X99.948 Y101.870 E0.02442 ; skirt
G1 X101.068 Y101.707 E0.02597 ; skirt
G1 X102.144 Y101.655 E0.02471 ; skirt
G1 X216.251 Y102.713 E2.61747 ; skirt
G1 X217.242 Y102.864 E0.02298 ; skirt
G1 X218.261 Y103.124 E0.02412 ; skirt
G1 X220.146 Y103.916 E0.04692 ; skirt
G1 X221.050 Y104.464 E0.02425 ; skirt
G1 X221.886 Y105.094 E0.02400 ; skirt
G1 X223.317 Y106.545 E0.04675 ; skirt
G1 X224.441 Y108.247 E0.04677 ; skirt
G1 X225.216 Y110.138 E0.04689 ; skirt
G1 X225.468 Y111.159 E0.02413 ; skirt
G1 X225.615 Y112.194 E0.02397 ; skirt
G1 X225.604 Y114.230 E0.04670 ; skirt
G1 X225.259 Y116.028 E0.04199 ; skirt
G1 X224.612 Y117.728 E0.04173 ; skirt
G1 X223.675 Y119.300 E0.04199 ; skirt
G1 X222.491 Y120.674 E0.04160 ; skirt
G1 X221.075 Y121.833 E0.04199 ; skirt
G1 X219.488 Y122.724 E0.04173 ; skirt
G1 X217.767 Y123.329 E0.04186 ; skirt
G1 X215.998 Y123.625 E0.04114 ; skirt
G1 X102.286 Y124.658 E2.60839 ; skirt
G1 X100.959 Y124.596 E0.03047 ; skirt
G1 X99.894 Y124.434 E0.02471 ; skirt
G1 X98.790 Y124.155 E0.02612 ; skirt
G1 X97.794 Y123.799 E0.02427 ; skirt
G1 X96.786 Y123.327 E0.02554 ; skirt
G1 X95.020 Y122.176 E0.04834 ; skirt
G1 X94.177 Y121.440 E0.02567 ; skirt
G1 X93.438 Y120.657 E0.02470 ; skirt
G1 X92.750 Y119.774 E0.02568 ; skirt
G1 X92.184 Y118.886 E0.02413 ; skirt
G1 X91.667 Y117.873 E0.02610 ; skirt
G1 X91.276 Y116.883 E0.02441 ; skirt
G1 X90.962 Y115.795 E0.02598 ; skirt
G1 X90.767 Y114.755 E0.02426 ; skirt
G1 X90.669 Y113.701 E0.02428 ; skirt
G1 X90.671 Y112.563 E0.02611 ; skirt
G1 X90.787 Y111.426 E0.02622 ; skirt
G1 X90.994 Y110.388 E0.02426 ; skirt
G1 X91.296 Y109.373 E0.02429 ; skirt
G1 X91.721 Y108.324 E0.02596 ; skirt
G1 X92.212 Y107.381 E0.02441 ; skirt
G1 X92.828 Y106.430 E0.02597 ; skirt
G1 X93.486 Y105.602 E0.02426 ; skirt
G1 X94.215 Y104.842 E0.02416 ; skirt
G1 X94.492 Y105.085 F7800.000 ; move to first skirt point
G1 F1200
G1 X96.113 Y103.807 E0.04735 ; skirt
G1 X97.053 Y103.262 E0.02491 ; skirt
G1 X98.001 Y102.828 E0.02392 ; skirt
G1 X100.014 Y102.232 E0.04815 ; skirt
G1 X101.104 Y102.073 E0.02527 ; skirt
G1 X102.146 Y102.023 E0.02392 ; skirt
G1 X216.125 Y103.069 E2.61451 ; skirt
G1 X217.134 Y103.218 E0.02341 ; skirt
G1 X218.118 Y103.465 E0.02327 ; skirt
G1 X219.941 Y104.223 E0.04528 ; skirt
G1 X221.586 Y105.323 E0.04539 ; skirt
G1 X222.337 Y106.005 E0.02328 ; skirt
G1 X223.012 Y106.754 E0.02314 ; skirt
G1 X224.108 Y108.404 E0.04541 ; skirt
G1 X224.859 Y110.228 E0.04526 ; skirt
G1 X225.242 Y112.154 E0.04505 ; skirt
G1 X225.292 Y113.159 E0.02308 ; skirt
G1 X225.240 Y114.175 E0.02334 ; skirt
G1 X224.907 Y115.923 E0.04080 ; skirt
G1 X224.283 Y117.564 E0.04026 ; skirt
G1 X223.379 Y119.081 E0.04052 ; skirt
G1 X222.238 Y120.407 E0.04014 ; skirt
G1 X220.866 Y121.530 E0.04066 ; skirt
G1 X219.335 Y122.390 E0.04026 ; skirt
G1 X217.674 Y122.974 E0.04039 ; skirt
G1 X215.955 Y123.260 E0.03997 ; skirt
G1 X102.283 Y124.290 E2.60748 ; skirt
G1 X101.103 Y124.241 E0.02708 ; skirt
G1 X99.041 Y123.846 E0.04815 ; skirt
G1 X98.000 Y123.486 E0.02527 ; skirt
G1 X97.068 Y123.060 E0.02350 ; skirt
G1 X96.115 Y122.508 E0.02527 ; skirt
G1 X95.285 Y121.917 E0.02336 ; skirt
G1 X94.449 Y121.191 E0.02541 ; skirt
G1 X93.743 Y120.448 E0.02350 ; skirt
G1 X93.110 Y119.646 E0.02344 ; skirt
G1 X92.512 Y118.718 E0.02534 ; skirt
G1 X92.044 Y117.813 E0.02336 ; skirt
G1 X91.632 Y116.785 E0.02540 ; skirt
G1 X91.341 Y115.796 E0.02364 ; skirt
G1 X91.133 Y114.714 E0.02527 ; skirt
G1 X91.037 Y112.611 E0.04830 ; skirt
G1 X91.137 Y111.574 E0.02388 ; skirt
G1 X91.347 Y110.493 E0.02526 ; skirt
G1 X91.640 Y109.505 E0.02365 ; skirt
G1 X92.050 Y108.489 E0.02513 ; skirt
G1 X92.525 Y107.574 E0.02363 ; skirt
G1 X93.124 Y106.649 E0.02528 ; skirt
G1 X94.453 Y105.130 E0.04630 ; skirt
; printing object C:/Users/Garfield/AppData/Local/Temp/Neutron/3b6c73cf-765f-48e7-95f2-13346dcd1692.stl id:0 copy 0
G1 E-1.40000 F2400.00000 ; retract
G1 Z0.350 F7800.000 ; lift Z
G1 X214.677 Y115.631 ; move to first perimeter point
G1 Z0.150 ; restore layer Z
G1 E1.40000 F2400.00000 ; unretract
G1 F1200
G1 X214.213 Y115.494 E0.01108 ; perimeter
G1 X213.783 Y115.270 E0.01114 ; perimeter
G1 X213.377 Y114.941 E0.01197 ; perimeter
G1 X213.066 Y114.565 E0.01120 ; perimeter
G1 X212.821 Y114.104 E0.01197 ; perimeter
G1 X212.683 Y113.638 E0.01114 ; perimeter
G1 X212.637 Y113.157 E0.01108 ; perimeter
G1 X212.683 Y112.676 E0.01108 ; perimeter
G1 X212.821 Y112.211 E0.01114 ; perimeter
G1 X213.066 Y111.750 E0.01197 ; perimeter
G1 X213.375 Y111.375 E0.01114 ; perimeter
G1 X213.748 Y111.068 E0.01108 ; perimeter
G1 X214.173 Y110.837 E0.01108 ; perimeter
G1 X214.636 Y110.691 E0.01113 ; perimeter
G1 X215.151 Y110.636 E0.01188 ; perimeter
G1 X215.638 Y110.683 E0.01123 ; perimeter
G1 X216.102 Y110.820 E0.01109 ; perimeter
G1 X216.533 Y111.044 E0.01114 ; perimeter
G1 X216.938 Y111.373 E0.01197 ; perimeter
G1 X217.247 Y111.748 E0.01114 ; perimeter
G1 X217.478 Y112.172 E0.01108 ; perimeter
G1 X217.624 Y112.635 E0.01114 ; perimeter
G1 X217.679 Y113.157 E0.01203 ; perimeter
G1 X217.624 Y113.679 E0.01203 ; perimeter
G1 X217.478 Y114.142 E0.01114 ; perimeter
G1 X217.247 Y114.566 E0.01108 ; perimeter
G1 X216.938 Y114.941 E0.01114 ; perimeter
G1 X216.533 Y115.270 E0.01197 ; perimeter
G1 X216.102 Y115.494 E0.01114 ; perimeter
G1 X215.639 Y115.631 E0.01108 ; perimeter
G1 X215.158 Y115.678 E0.01108 ; perimeter
G1 X214.736 Y115.637 E0.00971 ; perimeter
G1 X214.747 Y115.268 F7800.000 ; move to first perimeter point
G1 F1200
G1 X214.352 Y115.151 E0.00946 ; perimeter
G1 X213.985 Y114.961 E0.00948 ; perimeter
G1 X213.637 Y114.679 E0.01027 ; perimeter
G1 X213.374 Y114.359 E0.00950 ; perimeter
G1 X213.164 Y113.964 E0.01027 ; perimeter
G1 X213.046 Y113.567 E0.00948 ; perimeter
G1 X213.007 Y113.157 E0.00946 ; perimeter
G1 X213.046 Y112.747 E0.00946 ; perimeter
G1 X213.164 Y112.350 E0.00948 ; perimeter
G1 X213.374 Y111.955 E0.01027 ; perimeter
G1 X213.637 Y111.636 E0.00948 ; perimeter
G1 X213.955 Y111.374 E0.00946 ; perimeter
G1 X214.317 Y111.177 E0.00946 ; perimeter
G1 X214.711 Y111.053 E0.00948 ; perimeter
G1 X215.153 Y111.006 E0.01019 ; perimeter
G1 X215.568 Y111.046 E0.00957 ; perimeter
G1 X215.963 Y111.163 E0.00946 ; perimeter
G1 X216.330 Y111.354 E0.00948 ; perimeter
G1 X216.678 Y111.635 E0.01027 ; perimeter
G1 X216.941 Y111.954 E0.00948 ; perimeter
G1 X217.138 Y112.317 E0.00946 ; perimeter
G1 X217.262 Y112.711 E0.00948 ; perimeter
G1 X217.309 Y113.157 E0.01029 ; perimeter
G1 X217.262 Y113.603 E0.01029 ; perimeter
G1 X217.138 Y113.998 E0.00948 ; perimeter
G1 X216.941 Y114.360 E0.00946 ; perimeter
G1 X216.678 Y114.679 E0.00948 ; perimeter
G1 X216.330 Y114.961 E0.01027 ; perimeter
G1 X215.963 Y115.151 E0.00948 ; perimeter
G1 X215.568 Y115.268 E0.00946 ; perimeter
G1 X215.158 Y115.308 E0.00946 ; perimeter
G1 X214.807 Y115.274 E0.00808 ; perimeter
G1 X214.485 Y115.570 F7800.000 ; move inwards before travel
G1 E-1.40000 F2400.00000 ; retract
G1 Z0.350 F7800.000 ; lift Z
G1 X105.748 Y113.157 ; move to first perimeter point
G1 Z0.150 ; restore layer Z
G1 E1.40000 F2400.00000 ; unretract
G1 F1200
G1 X105.682 Y113.842 E0.01578 ; perimeter
G1 X105.486 Y114.502 E0.01578 ; perimeter
G1 X105.178 Y115.094 E0.01531 ; perimeter
G1 X104.945 Y115.414 E0.00908 ; perimeter
G1 X104.680 Y115.709 E0.00908 ; perimeter
G1 X104.165 Y116.133 E0.01531 ; perimeter
G1 X103.578 Y116.452 E0.01531 ; perimeter
G1 X103.206 Y116.587 E0.00908 ; perimeter
G1 X102.822 Y116.683 E0.00908 ; perimeter
G1 X102.158 Y116.747 E0.01531 ; perimeter
G1 X101.493 Y116.683 E0.01531 ; perimeter
G1 X101.109 Y116.587 E0.00908 ; perimeter
G1 X100.741 Y116.454 E0.00899 ; perimeter
G1 X100.150 Y116.134 E0.01541 ; perimeter
G1 X99.619 Y115.696 E0.01579 ; perimeter
G1 X99.194 Y115.180 E0.01531 ; perimeter
G1 X98.991 Y114.841 E0.00908 ; perimeter
G1 X98.825 Y114.486 E0.00899 ; perimeter
G1 X98.634 Y113.842 E0.01541 ; perimeter
G1 X98.568 Y113.157 E0.01579 ; perimeter
G1 X98.634 Y112.472 E0.01578 ; perimeter
G1 X98.829 Y111.812 E0.01578 ; perimeter
G1 X99.137 Y111.220 E0.01531 ; perimeter
G1 X99.370 Y110.900 E0.00908 ; perimeter
G1 X99.635 Y110.606 E0.00908 ; perimeter
G1 X100.150 Y110.181 E0.01531 ; perimeter
G1 X100.755 Y109.853 E0.01578 ; perimeter
G1 X101.392 Y109.652 E0.01531 ; perimeter
G1 X101.782 Y109.590 E0.00908 ; perimeter
G1 X102.174 Y109.569 E0.00899 ; perimeter
G1 X102.842 Y109.633 E0.01541 ; perimeter
G1 X103.502 Y109.829 E0.01579 ; perimeter
G1 X104.095 Y110.137 E0.01531 ; perimeter
G1 X104.415 Y110.370 E0.00908 ; perimeter
G1 X104.694 Y110.621 E0.00861 ; perimeter
G1 X104.945 Y110.900 E0.00861 ; perimeter
G1 X105.178 Y111.220 E0.00908 ; perimeter
G1 X105.486 Y111.812 E0.01531 ; perimeter
G1 X105.682 Y112.472 E0.01578 ; perimeter
G1 X105.742 Y113.097 E0.01441 ; perimeter
G1 X105.378 Y113.157 F7800.000 ; move to first perimeter point
G1 F1200
G1 X105.319 Y113.772 E0.01416 ; perimeter
G1 X105.144 Y114.363 E0.01416 ; perimeter
G1 X104.864 Y114.900 E0.01387 ; perimeter
G1 X104.659 Y115.183 E0.00801 ; perimeter
G1 X104.425 Y115.442 E0.00801 ; perimeter
G1 X103.958 Y115.827 E0.01387 ; perimeter
G1 X103.427 Y116.116 E0.01387 ; perimeter
G1 X103.099 Y116.235 E0.00801 ; perimeter
G1 X102.760 Y116.320 E0.00801 ; perimeter
G1 X102.158 Y116.378 E0.01387 ; perimeter
G1 X101.556 Y116.320 E0.01387 ; perimeter
G1 X101.217 Y116.235 E0.00801 ; perimeter
G1 X100.892 Y116.117 E0.00792 ; perimeter
G1 X100.357 Y115.827 E0.01396 ; perimeter
G1 X99.880 Y115.434 E0.01417 ; perimeter
G1 X99.496 Y114.968 E0.01387 ; perimeter
G1 X99.316 Y114.668 E0.00801 ; perimeter
G1 X99.170 Y114.355 E0.00792 ; perimeter
G1 X98.996 Y113.772 E0.01396 ; perimeter
G1 X98.937 Y113.157 E0.01417 ; perimeter
G1 X98.996 Y112.543 E0.01416 ; perimeter
G1 X99.172 Y111.951 E0.01416 ; perimeter
G1 X99.451 Y111.414 E0.01387 ; perimeter
G1 X99.656 Y111.132 E0.00801 ; perimeter
G1 X99.890 Y110.872 E0.00801 ; perimeter
G1 X100.357 Y110.487 E0.01387 ; perimeter
G1 X100.899 Y110.193 E0.01416 ; perimeter
G1 X101.476 Y110.011 E0.01387 ; perimeter
G1 X101.821 Y109.956 E0.00801 ; perimeter
G1 X102.166 Y109.938 E0.00792 ; perimeter
G1 X102.772 Y109.996 E0.01396 ; perimeter
G1 X103.364 Y110.171 E0.01417 ; perimeter
G1 X103.901 Y110.450 E0.01387 ; perimeter
G1 X104.183 Y110.656 E0.00801 ; perimeter
G1 X104.433 Y110.881 E0.00773 ; perimeter
G1 X104.659 Y111.132 E0.00773 ; perimeter
G1 X104.864 Y111.414 E0.00801 ; perimeter
G1 X105.144 Y111.951 E0.01387 ; perimeter
G1 X105.319 Y112.543 E0.01416 ; perimeter
G1 X105.372 Y113.097 E0.01278 ; perimeter
G1 X105.009 Y113.157 F7800.000 ; move to first perimeter point
G1 F1200
G1 X104.956 Y113.701 E0.01254 ; perimeter
G1 X104.801 Y114.225 E0.01254 ; perimeter
G1 X104.551 Y114.706 E0.01243 ; perimeter
G1 X104.373 Y114.951 E0.00694 ; perimeter
G1 X104.170 Y115.176 E0.00694 ; perimeter
G1 X103.752 Y115.521 E0.01243 ; perimeter
G1 X103.275 Y115.779 E0.01243 ; perimeter
G1 X102.991 Y115.883 E0.00694 ; perimeter
G1 X102.697 Y115.956 E0.00694 ; perimeter
G1 X102.158 Y116.008 E0.01243 ; perimeter
G1 X101.618 Y115.956 E0.01243 ; perimeter
G1 X101.324 Y115.883 E0.00694 ; perimeter
G1 X101.043 Y115.781 E0.00686 ; perimeter
G1 X100.563 Y115.521 E0.01252 ; perimeter
G1 X100.142 Y115.173 E0.01254 ; perimeter
G1 X99.797 Y114.755 E0.01243 ; perimeter
G1 X99.641 Y114.495 E0.00694 ; perimeter
G1 X99.515 Y114.224 E0.00686 ; perimeter
G1 X99.359 Y113.701 E0.01252 ; perimeter
G1 X99.307 Y113.157 E0.01254 ; perimeter
G1 X99.359 Y112.613 E0.01254 ; perimeter
G1 X99.514 Y112.089 E0.01254 ; perimeter
G1 X99.765 Y111.608 E0.01243 ; perimeter
G1 X99.943 Y111.363 E0.00694 ; perimeter
G1 X100.145 Y111.138 E0.00694 ; perimeter
G1 X100.563 Y110.794 E0.01243 ; perimeter
G1 X101.044 Y110.533 E0.01254 ; perimeter
G1 X101.561 Y110.370 E0.01243 ; perimeter
G1 X101.860 Y110.322 E0.00694 ; perimeter
G1 X102.158 Y110.307 E0.00686 ; perimeter
G1 X102.702 Y110.359 E0.01252 ; perimeter
G1 X103.226 Y110.514 E0.01254 ; perimeter
G1 X103.706 Y110.764 E0.01243 ; perimeter
G1 X103.951 Y110.942 E0.00694 ; perimeter
G1 X104.173 Y111.142 E0.00684 ; perimeter
G1 X104.373 Y111.363 E0.00684 ; perimeter
G1 X104.551 Y111.608 E0.00694 ; perimeter
G1 X104.801 Y112.089 E0.01243 ; perimeter
G1 X104.956 Y112.613 E0.01254 ; perimeter
G1 X105.003 Y113.097 E0.01116 ; perimeter
G1 X105.355 Y113.357 F7800.000 ; move inwards before travel
G1 X106.258 Y114.486 ; move to first perimeter point
G1 F1200
G1 X106.407 Y113.983 E0.01203 ; perimeter
G1 X106.487 Y113.157 E0.01903 ; perimeter
G1 X106.407 Y112.331 E0.01903 ; perimeter
G1 X106.258 Y111.828 E0.01203 ; perimeter
G1 X211.784 Y111.828 E2.42051 ; perimeter
G1 X211.595 Y112.465 E0.01522 ; perimeter
G1 X211.529 Y113.157 E0.01596 ; perimeter
G1 X211.595 Y113.850 E0.01596 ; perimeter
G1 X211.784 Y114.486 E0.01522 ; perimeter
G1 X106.318 Y114.486 E2.41913 ; perimeter
G1 X105.718 Y114.854 F7800.000 ; move to first perimeter point
G1 F1200
G1 X105.829 Y114.640 E0.00552 ; perimeter
G1 X106.044 Y113.913 E0.01741 ; perimeter
G1 X106.117 Y113.157 E0.01741 ; perimeter
G1 X106.044 Y112.402 E0.01741 ; perimeter
G1 X105.829 Y111.674 E0.01741 ; perimeter
G1 X105.718 Y111.461 E0.00552 ; perimeter
G1 X212.387 Y111.461 E2.44674 ; perimeter
G1 X212.137 Y111.931 E0.01221 ; perimeter
G1 X211.958 Y112.535 E0.01446 ; perimeter
G1 X211.898 Y113.157 E0.01433 ; perimeter
G1 X211.958 Y113.779 E0.01433 ; perimeter
G1 X212.137 Y114.384 E0.01446 ; perimeter
G1 X212.387 Y114.854 E0.01221 ; perimeter
G1 X105.778 Y114.854 E2.44537 ; perimeter
G1 X105.718 Y115.221 F7800.000 ; move to first perimeter point
G1 F1200
G1 X105.667 Y115.221 E0.00117 ; perimeter
G1 X105.031 Y115.958 E0.02233 ; perimeter
G1 X104.668 Y116.287 E0.01122 ; perimeter
G1 X104.269 Y116.569 E0.01121 ; perimeter
G1 X103.838 Y116.801 E0.01121 ; perimeter
G1 X103.383 Y116.978 E0.01121 ; perimeter
G1 X102.909 Y117.099 E0.01121 ; perimeter
G1 X102.420 Y117.161 E0.01130 ; perimeter
G1 X102.002 Y117.167 E0.00960 ; perimeter
G1 X101.588 Y117.129 E0.00954 ; perimeter
G1 X101.172 Y117.048 E0.00971 ; perimeter
G1 X100.842 Y116.949 E0.00790 ; perimeter
G1 X100.450 Y116.789 E0.00972 ; perimeter
G1 X100.144 Y116.629 E0.00791 ; perimeter
G1 X99.789 Y116.397 E0.00972 ; perimeter
G1 X99.520 Y116.182 E0.00791 ; perimeter
G1 X99.216 Y115.887 E0.00972 ; perimeter
G1 X98.992 Y115.624 E0.00791 ; perimeter
G1 X98.752 Y115.280 E0.00963 ; perimeter
G1 X98.547 Y114.910 E0.00971 ; perimeter
G1 X98.410 Y114.593 E0.00790 ; perimeter
G1 X98.281 Y114.194 E0.00963 ; perimeter
G1 X98.194 Y113.784 E0.00962 ; perimeter
G1 X98.150 Y113.363 E0.00971 ; perimeter
G1 X98.147 Y113.017 E0.00792 ; perimeter
G1 X98.174 Y112.673 E0.00792 ; perimeter
G1 X98.247 Y112.256 E0.00971 ; perimeter
G1 X98.362 Y111.852 E0.00963 ; perimeter
G1 X98.488 Y111.531 E0.00791 ; perimeter
G1 X98.680 Y111.153 E0.00972 ; perimeter
