; G-Code generated by Simplify3D(R) Version 4.1.2
; May 10, 2019 at 1:20:46 PM
; Settings Summary
;   processName,plaTec
;   applyToModels,Marco Messteil
;   profileName,RepRapPro Ormerod 2
;   profileVersion,2017-01-17 01:23:27
;   baseProfile,Default
;   printMaterial,ABS
;   printQuality,Medium
;   printExtruders,Extruder 1 Only
;   extruderName,Extruder 1,Extruder 2
;   extruderToolheadNumber,0,1
;   extruderDiameter,0.5,0.5
;   extruderAutoWidth,1,1
;   extruderWidth,0.6,0.6
;   extrusionMultiplier,0.9,0.9
;   extruderUseRetract,1,1
;   extruderRetractionDistance,3,3
;   extruderExtraRestartDistance,0,0
;   extruderRetractionZLift,0.1,0
;   extruderRetractionSpeed,3600,3600
;   extruderUseCoasting,0,0
;   extruderCoastingDistance,0.2,0.2
;   extruderUseWipe,0,0
;   extruderWipeDistance,5,5
;   primaryExtruder,0
;   layerHeight,0.24
;   topSolidLayers,3
;   bottomSolidLayers,3
;   perimeterOutlines,2
;   printPerimetersInsideOut,1
;   startPointOption,2
;   startPointOriginX,0
;   startPointOriginY,0
;   sequentialIslands,0
;   spiralVaseMode,0
;   firstLayerHeightPercentage,200
;   firstLayerWidthPercentage,200
;   firstLayerUnderspeed,0.33
;   useRaft,0
;   raftExtruder,0
;   raftTopLayers,3
;   raftBaseLayers,2
;   raftOffset,3
;   raftSeparationDistance,0.14
;   raftTopInfill,100
;   aboveRaftSpeedMultiplier,0.3
;   useSkirt,1
;   skirtExtruder,0
;   skirtLayers,1
;   skirtOutlines,2
;   skirtOffset,2
;   usePrimePillar,0
;   primePillarExtruder,999
;   primePillarWidth,12
;   primePillarLocation,7
;   primePillarSpeedMultiplier,1
;   useOozeShield,0
;   oozeShieldExtruder,999
;   oozeShieldOffset,2
;   oozeShieldOutlines,1
;   oozeShieldSidewallShape,1
;   oozeShieldSidewallAngle,30
;   oozeShieldSpeedMultiplier,1
;   infillExtruder,0
;   internalInfillPattern,Rectilinear
;   externalInfillPattern,Rectilinear
;   infillPercentage,20
;   outlineOverlapPercentage,15
;   infillExtrusionWidthPercentage,100
;   minInfillLength,5
;   infillLayerInterval,1
;   internalInfillAngles,45,-45
;   overlapInternalInfillAngles,0
;   externalInfillAngles,45,-45
;   generateSupport,1
;   supportExtruder,0
;   supportInfillPercentage,30
;   supportExtraInflation,0
;   supportBaseLayers,0
;   denseSupportExtruder,0
;   denseSupportLayers,0
;   denseSupportInfillPercentage,70
;   supportLayerInterval,1
;   supportHorizontalPartOffset,0.3
;   supportUpperSeparationLayers,1
;   supportLowerSeparationLayers,1
;   supportType,0
;   supportGridSpacing,4
;   maxOverhangAngle,45
;   supportAngles,0
;   temperatureName,Extruder 1,Extruder 2,Heated Bed
;   temperatureNumber,0,1,0
;   temperatureSetpointCount,1,1,1
;   temperatureSetpointLayers,1,1,1
;   temperatureSetpointTemperatures,220,0,65
;   temperatureStabilizeAtStartup,1,0,1
;   temperatureHeatedBed,0,0,1
;   fanLayers,1
;   fanSpeeds,35
;   blipFanToFullPower,0
;   adjustSpeedForCooling,1
;   minSpeedLayerTime,10
;   minCoolingSpeedSlowdown,20
;   increaseFanForCooling,1
;   minFanLayerTime,30
;   maxCoolingFanSpeed,67
;   increaseFanForBridging,1
;   bridgingFanSpeed,65
;   use5D,1
;   relativeEdistances,1
;   allowEaxisZeroing,0
;   independentExtruderAxes,0
;   includeM10123,0
;   stickySupport,1
;   applyToolheadOffsets,0
;   gcodeXoffset,0
;   gcodeYoffset,0
;   gcodeZoffset,0
;   overrideMachineDefinition,0
;   machineTypeOverride,0
;   strokeXoverride,214
;   strokeYoverride,210
;   strokeZoverride,1000
;   originOffsetXoverride,0
;   originOffsetYoverride,0
;   originOffsetZoverride,0
;   homeXdirOverride,-1
;   homeYdirOverride,-1
;   homeZdirOverride,-1
;   flipXoverride,1
;   flipYoverride,-1
;   flipZoverride,1
;   toolheadOffsets,0,0|0,0|0,0|0,0|0,0|0,0
;   overrideFirmwareConfiguration,1
;   firmwareTypeOverride,RepRap (Marlin/Repetier/Sprinter)
;   GPXconfigOverride,r2
;   baudRateOverride,115200
;   overridePrinterModels,0
;   printerModelsOverride
;   startingGcode,G1 X210 Y40 F9000
;   layerChangeGcode,
;   retractionGcode,
;   toolChangeGcode,
;   endingGcode,G1 E-10 F2400,G91,G1 X5 Y5 F6000,G1 Z5 F360,G90,G1 X0 Y206 F6000,M0
;   exportFileFormat,gcode
;   celebration,0
;   celebrationSong,Random Song
;   postProcessing,
;   defaultSpeed,3000
;   outlineUnderspeed,0.75
;   solidInfillUnderspeed,1
;   supportUnderspeed,0.65
;   rapidXYspeed,12000
;   rapidZspeed,360
;   minBridgingArea,50
;   bridgingExtraInflation,0
;   bridgingExtrusionMultiplier,0.98
;   bridgingSpeedMultiplier,0.5
;   useFixedBridgingAngle,0
;   fixedBridgingAngle,0
;   applyBridgingToPerimeters,0
;   filamentDiameters,1.75|1.75|1.75|1.75|1.75|1.75
;   filamentPricesPerKg,30|30|30|30|30|30
;   filamentDensities,1.25|1.25|1.25|1.25|1.25|1.25
;   useMinPrintHeight,0
;   minPrintHeight,0
;   useMaxPrintHeight,0
;   maxPrintHeight,0
;   useDiaphragm,0
;   diaphragmLayerInterval,20
;   robustSlicing,1
;   mergeAllIntoSolid,0
;   onlyRetractWhenCrossingOutline,1
;   retractBetweenLayers,1
;   useRetractionMinTravel,1
;   retractionMinTravel,2
;   retractWhileWiping,0
;   onlyWipeOutlines,1
;   avoidCrossingOutline,0
;   maxMovementDetourFactor,3
;   toolChangeRetractionDistance,12
;   toolChangeExtraRestartDistance,-0.5
;   toolChangeRetractionSpeed,600
;   externalThinWallType,0
;   internalThinWallType,2
;   thinWallAllowedOverlapPercentage,10
;   singleExtrusionMinLength,1
;   singleExtrusionMinPrintingWidthPercentage,50
;   singleExtrusionMaxPrintingWidthPercentage,200
;   singleExtrusionEndpointExtension,0.2
;   horizontalSizeCompensation,0
G90
M83
M106 S89
M140 S65
M190 S65
M104 S220 T0
M104 S0 T1
M109 S220 T0
G1 X210 Y40 F9000
; process plaTec
; layer 1, Z = 0.480
T0
G1 E-3.0000 F3600
; feature skirt
; tool H0.480 W1.200
G1 Z0.480 F360
G1 X83.348 Y80.854 F12000
G1 E3.0000 F3600
G1 X83.493 Y80.713 E0.0436 F990
G1 X86.048 Y78.477 E0.7319
G1 X86.207 Y78.352 E0.0436
G1 X88.986 Y76.400 E0.7319
G1 X89.158 Y76.293 E0.0436
G1 X92.128 Y74.647 E0.7319
G1 X92.310 Y74.559 E0.0436
G1 X95.439 Y73.239 E0.7319
G1 X95.629 Y73.170 E0.0436
G1 X98.880 Y72.190 E0.7319
G1 X99.077 Y72.142 E0.0436
G1 X102.414 Y71.512 E0.7319
G1 X102.614 Y71.486 E0.0436
G1 X105.999 Y71.215 E0.7319
G1 X106.201 Y71.209 E0.0436
G1 X109.596 Y71.300 E0.7319
G1 X109.798 Y71.316 E0.0436
G1 X113.163 Y71.767 E0.7319
G1 X113.362 Y71.804 E0.0436
G1 X116.661 Y72.610 E0.7319
G1 X116.855 Y72.668 E0.0436
G1 X120.049 Y73.820 E0.7319
G1 X120.235 Y73.899 E0.0436
G1 X123.289 Y75.384 E0.7319
G1 X123.466 Y75.482 E0.0436
G1 X126.345 Y77.283 E0.7319
G1 X126.511 Y77.400 E0.0436
G1 X129.182 Y79.496 E0.7319
G1 X129.334 Y79.630 E0.0436
G1 X131.767 Y81.999 E0.7318
G1 X131.904 Y82.147 E0.0436
G1 X134.071 Y84.762 E0.7319
G1 X134.192 Y84.924 E0.0436
G1 X136.069 Y87.754 E0.7319
G1 X136.172 Y87.928 E0.0436
G1 X137.738 Y90.941 E0.7319
G1 X137.821 Y91.126 E0.0436
G1 X139.058 Y94.288 E0.7319
G1 X139.121 Y94.480 E0.0436
G1 X140.015 Y97.756 E0.7319
G1 X140.058 Y97.954 E0.0436
G1 X140.598 Y101.307 E0.7319
G1 X140.619 Y101.508 E0.0436
G1 X140.800 Y104.899 E0.7319
G1 X140.800 Y105.101 E0.0436
G1 X140.619 Y108.492 E0.7319
G1 X140.598 Y108.693 E0.0436
G1 X140.058 Y112.046 E0.7319
G1 X140.015 Y112.244 E0.0436
G1 X139.121 Y115.520 E0.7319
G1 X139.058 Y115.712 E0.0436
G1 X137.821 Y118.874 E0.7319
G1 X137.738 Y119.059 E0.0436
G1 X136.172 Y122.072 E0.7319
G1 X136.069 Y122.246 E0.0436
G1 X134.192 Y125.076 E0.7319
G1 X134.071 Y125.238 E0.0436
G1 X131.904 Y127.853 E0.7319
G1 X131.767 Y128.001 E0.0436
G1 X129.334 Y130.370 E0.7319
G1 X129.182 Y130.504 E0.0436
G1 X126.511 Y132.600 E0.7319
G1 X126.345 Y132.717 E0.0436
G1 X123.466 Y134.518 E0.7319
G1 X123.289 Y134.616 E0.0436
G1 X120.236 Y136.101 E0.7319
G1 X120.049 Y136.180 E0.0436
G1 X116.855 Y137.332 E0.7319
G1 X116.661 Y137.390 E0.0436
G1 X113.362 Y138.196 E0.7319
G1 X113.163 Y138.233 E0.0436
G1 X109.798 Y138.684 E0.7319
G1 X109.596 Y138.700 E0.0436
G1 X106.201 Y138.791 E0.7319
G1 X105.999 Y138.785 E0.0436
G1 X102.614 Y138.514 E0.7319
G1 X102.414 Y138.488 E0.0436
G1 X99.077 Y137.858 E0.7319
G1 X98.880 Y137.810 E0.0436
G1 X95.629 Y136.830 E0.7319
G1 X95.439 Y136.761 E0.0436
G1 X92.310 Y135.441 E0.7319
G1 X92.128 Y135.352 E0.0436
G1 X89.158 Y133.707 E0.7319
G1 X88.986 Y133.600 E0.0436
G1 X86.207 Y131.648 E0.7319
G1 X86.048 Y131.523 E0.0436
G1 X83.493 Y129.287 E0.7319
G1 X83.348 Y129.146 E0.0436
G1 X81.044 Y126.651 E0.7319
G1 X80.915 Y126.495 E0.0436
G1 X78.890 Y123.769 E0.7319
G1 X78.778 Y123.600 E0.0436
G1 X77.054 Y120.675 E0.7319
G1 X76.961 Y120.495 E0.0436
G1 X75.558 Y117.403 E0.7319
G1 X75.484 Y117.214 E0.0436
G1 X74.417 Y113.990 E0.7319
G1 X74.364 Y113.795 E0.0436
G1 X73.647 Y110.477 E0.7317
G1 X73.615 Y110.278 E0.0433
G1 X73.260 Y106.979 E0.7151
G1 X73.250 Y106.836 E0.0309
G1 X73.235 Y106.378 E0.0989
G1 X73.234 Y106.312 E0.0141
G1 X73.243 Y103.295 E0.6503
G1 X73.254 Y103.098 E0.0425
G1 X73.614 Y99.724 E0.7314
G1 X73.646 Y99.524 E0.0436
G1 X74.364 Y96.205 E0.7319
G1 X74.417 Y96.010 E0.0436
G1 X75.484 Y92.786 E0.7319
G1 X75.558 Y92.597 E0.0436
G1 X76.961 Y89.505 E0.7319
G1 X77.054 Y89.325 E0.0436
G1 X78.778 Y86.400 E0.7319
G1 X78.890 Y86.231 E0.0436
G1 X80.915 Y83.505 E0.7319
G1 X81.044 Y83.349 E0.0436
G1 X83.348 Y80.854 E0.7319
G1 X84.208 Y81.692 F12000
G1 X84.307 Y81.595 E0.0298 F990
G1 X86.814 Y79.401 E0.7181
G1 X86.923 Y79.316 E0.0298
G1 X89.650 Y77.401 E0.7181
G1 X89.767 Y77.327 E0.0298
G1 X92.682 Y75.713 E0.7181
G1 X92.806 Y75.652 E0.0298
G1 X95.876 Y74.357 E0.7181
G1 X96.006 Y74.310 E0.0298
G1 X99.196 Y73.348 E0.7181
G1 X99.330 Y73.315 E0.0298
G1 X102.605 Y72.698 E0.7181
G1 X102.742 Y72.679 E0.0298
G1 X106.063 Y72.413 E0.7181
G1 X106.201 Y72.410 E0.0298
G1 X109.532 Y72.498 E0.7181
G1 X109.670 Y72.509 E0.0298
G1 X112.972 Y72.952 E0.7181
G1 X113.108 Y72.977 E0.0298
G1 X116.345 Y73.768 E0.7181
G1 X116.478 Y73.808 E0.0298
G1 X119.612 Y74.938 E0.7181
G1 X119.739 Y74.992 E0.0298
G1 X122.736 Y76.449 E0.7181
G1 X122.857 Y76.516 E0.0298
G1 X125.681 Y78.284 E0.7181
G1 X125.795 Y78.363 E0.0298
G1 X128.415 Y80.421 E0.7181
G1 X128.520 Y80.512 E0.0298
G1 X130.907 Y82.836 E0.7181
G1 X131.001 Y82.938 E0.0298
G1 X133.127 Y85.503 E0.7181
G1 X133.210 Y85.614 E0.0298
G1 X135.052 Y88.390 E0.7181
G1 X135.122 Y88.510 E0.0298
G1 X136.658 Y91.466 E0.7181
G1 X136.715 Y91.592 E0.0298
G1 X137.929 Y94.695 E0.7181
G1 X137.972 Y94.827 E0.0298
G1 X138.849 Y98.041 E0.7181
G1 X138.878 Y98.177 E0.0298
G1 X139.408 Y101.466 E0.7181
G1 X139.423 Y101.604 E0.0298
G1 X139.600 Y104.931 E0.7181
G1 X139.600 Y105.069 E0.0298
G1 X139.423 Y108.396 E0.7181
G1 X139.408 Y108.534 E0.0298
G1 X138.878 Y111.823 E0.7181
G1 X138.849 Y111.959 E0.0298
G1 X137.972 Y115.173 E0.7181
G1 X137.929 Y115.305 E0.0298
G1 X136.715 Y118.408 E0.7181
G1 X136.658 Y118.534 E0.0298
G1 X135.122 Y121.490 E0.7181
G1 X135.052 Y121.610 E0.0298
G1 X133.210 Y124.386 E0.7181
G1 X133.127 Y124.497 E0.0298
G1 X131.001 Y127.062 E0.7181
G1 X130.907 Y127.164 E0.0298
G1 X128.520 Y129.488 E0.7181
G1 X128.415 Y129.579 E0.0298
G1 X125.795 Y131.637 E0.7181
G1 X125.681 Y131.716 E0.0298
G1 X122.857 Y133.484 E0.7181
G1 X122.736 Y133.551 E0.0298
G1 X119.739 Y135.008 E0.7181
G1 X119.612 Y135.062 E0.0298
G1 X116.478 Y136.192 E0.7181
G1 X116.345 Y136.232 E0.0298
G1 X113.108 Y137.023 E0.7181
G1 X112.972 Y137.048 E0.0298
G1 X109.670 Y137.491 E0.7181
G1 X109.532 Y137.502 E0.0298
G1 X106.201 Y137.590 E0.7181
G1 X106.063 Y137.587 E0.0298
G1 X102.742 Y137.321 E0.7181
G1 X102.605 Y137.302 E0.0298
G1 X99.330 Y136.685 E0.7181
G1 X99.196 Y136.652 E0.0298
G1 X96.006 Y135.690 E0.7181
G1 X95.876 Y135.643 E0.0298
G1 X92.806 Y134.348 E0.7181
G1 X92.682 Y134.287 E0.0298
G1 X89.767 Y132.673 E0.7181
G1 X89.650 Y132.599 E0.0298
G1 X86.923 Y130.684 E0.7181
G1 X86.814 Y130.599 E0.0298
G1 X84.307 Y128.405 E0.7181
G1 X84.208 Y128.308 E0.0298
G1 X81.948 Y125.860 E0.7181
G1 X81.859 Y125.753 E0.0298
G1 X79.872 Y123.079 E0.7181
G1 X79.796 Y122.964 E0.0298
G1 X78.104 Y120.093 E0.7181
G1 X78.040 Y119.970 E0.0298
G1 X76.664 Y116.936 E0.7181
G1 X76.613 Y116.807 E0.0298
G1 X75.567 Y113.644 E0.7181
G1 X75.530 Y113.510 E0.0298
G1 X74.826 Y110.254 E0.7180
G1 X74.804 Y110.118 E0.0297
G1 X74.455 Y106.874 E0.7033
G1 X74.448 Y106.776 E0.0212
G1 X74.435 Y106.350 E0.0918
G1 X74.434 Y106.305 E0.0096
G1 X74.443 Y103.329 E0.6414
G1 X74.450 Y103.195 E0.0291
G1 X74.804 Y99.883 E0.7179
G1 X74.826 Y99.746 E0.0298
G1 X75.530 Y96.490 E0.7181
G1 X75.567 Y96.356 E0.0298
G1 X76.613 Y93.193 E0.7181
G1 X76.664 Y93.064 E0.0298
G1 X78.040 Y90.030 E0.7181
G1 X78.104 Y89.907 E0.0298
G1 X79.796 Y87.036 E0.7181
G1 X79.872 Y86.921 E0.0298
G1 X81.859 Y84.247 E0.7181
G1 X81.948 Y84.140 E0.0298
G1 X84.208 Y81.692 E0.7181
G1 E-3.0000 F3600
; feature inner perimeter
G1 Z0.580 F360
G1 X87.329 Y84.798 F12000
G1 Z0.480 F360
G1 E3.0000 F3600
G1 X89.587 Y82.821 E0.6469 F866
G1 X92.044 Y81.096 E0.6469
G1 X94.669 Y79.642 E0.6469
G1 X97.434 Y78.475 E0.6469
G1 X100.308 Y77.608 E0.6469
G1 X103.257 Y77.052 E0.6469
G1 X106.249 Y76.813 E0.6469
G1 X109.250 Y76.892 E0.6469
G1 X112.225 Y77.291 E0.6469
G1 X115.140 Y78.003 E0.6469
G1 X117.964 Y79.021 E0.6469
G1 X120.663 Y80.334 E0.6469
G1 X123.208 Y81.926 E0.6469
G1 X125.568 Y83.779 E0.6469
G1 X127.719 Y85.873 E0.6469
G1 X129.634 Y88.184 E0.6469
G1 X131.294 Y90.685 E0.6469
G1 X132.678 Y93.349 E0.6469
G1 X133.771 Y96.144 E0.6469
G1 X134.560 Y99.040 E0.6469
G1 X135.038 Y102.003 E0.6469
G1 X135.197 Y105.000 E0.6469
G1 X135.038 Y107.997 E0.6469
G1 X134.560 Y110.960 E0.6469
G1 X133.771 Y113.856 E0.6469
G1 X132.678 Y116.651 E0.6469
G1 X131.294 Y119.315 E0.6469
G1 X129.634 Y121.816 E0.6469
G1 X127.719 Y124.127 E0.6469
G1 X125.568 Y126.221 E0.6469
G1 X123.208 Y128.074 E0.6469
G1 X120.663 Y129.666 E0.6469
G1 X117.964 Y130.979 E0.6469
G1 X115.140 Y131.997 E0.6469
G1 X112.225 Y132.709 E0.6469
G1 X109.250 Y133.108 E0.6469
G1 X106.249 Y133.187 E0.6469
G1 X103.257 Y132.948 E0.6469
G1 X100.308 Y132.392 E0.6469
G1 X97.434 Y131.525 E0.6469
G1 X94.669 Y130.358 E0.6469
G1 X92.044 Y128.904 E0.6469
G1 X89.587 Y127.179 E0.6469
G1 X87.329 Y125.202 E0.6469
G1 X85.293 Y122.997 E0.6469
G1 X83.503 Y120.588 E0.6469
G1 X81.979 Y118.002 E0.6469
G1 X80.739 Y115.268 E0.6469
G1 X79.796 Y112.419 E0.6469
G1 X79.161 Y109.485 E0.6470
G1 X78.843 Y106.520 E0.6427
G1 X78.834 Y106.264 E0.0550
G1 X78.842 Y103.502 E0.5953
G1 X79.162 Y100.515 E0.6476
G1 X79.796 Y97.581 E0.6469
G1 X80.739 Y94.732 E0.6469
G1 X81.979 Y91.998 E0.6469
G1 X83.503 Y89.412 E0.6469
G1 X85.293 Y87.003 E0.6469
G1 X87.329 Y84.798 E0.6469
; feature outer perimeter
G1 X86.490 Y83.937 F12000
G1 X88.845 Y81.876 E0.6745 F743
G1 X91.406 Y80.077 E0.6744
G1 X94.144 Y78.561 E0.6745
G1 X97.027 Y77.344 E0.6745
G1 X100.023 Y76.441 E0.6744
G1 X103.098 Y75.861 E0.6745
G1 X106.217 Y75.611 E0.6745
G1 X109.346 Y75.695 E0.6745
G1 X112.447 Y76.110 E0.6745
G1 X115.487 Y76.853 E0.6745
G1 X118.431 Y77.914 E0.6745
G1 X121.245 Y79.283 E0.6745
G1 X123.898 Y80.943 E0.6745
G1 X126.360 Y82.875 E0.6745
G1 X128.602 Y85.058 E0.6745
G1 X130.599 Y87.467 E0.6745
G1 X132.329 Y90.075 E0.6745
G1 X133.772 Y92.852 E0.6745
G1 X134.911 Y95.766 E0.6745
G1 X135.735 Y98.786 E0.6745
G1 X136.233 Y101.875 E0.6745
G1 X136.399 Y105.000 E0.6745
G1 X136.233 Y108.125 E0.6745
G1 X135.735 Y111.214 E0.6745
G1 X134.911 Y114.234 E0.6745
G1 X133.772 Y117.148 E0.6745
G1 X132.329 Y119.925 E0.6745
G1 X130.599 Y122.533 E0.6745
G1 X128.602 Y124.942 E0.6745
G1 X126.360 Y127.125 E0.6745
G1 X123.898 Y129.057 E0.6745
G1 X121.245 Y130.717 E0.6745
G1 X118.431 Y132.086 E0.6745
G1 X115.487 Y133.147 E0.6744
G1 X112.447 Y133.890 E0.6745
G1 X109.346 Y134.305 E0.6744
G1 X106.217 Y134.389 E0.6745
G1 X103.098 Y134.139 E0.6745
G1 X100.023 Y133.559 E0.6745
G1 X97.027 Y132.656 E0.6744
G1 X94.144 Y131.439 E0.6745
G1 X91.406 Y129.923 E0.6745
G1 X88.845 Y128.124 E0.6744
G1 X86.490 Y126.063 E0.6745
G1 X84.368 Y123.764 E0.6744
G1 X82.501 Y121.252 E0.6745
G1 X80.913 Y118.556 E0.6744
G1 X79.620 Y115.706 E0.6745
G1 X78.637 Y112.735 E0.6745
G1 X77.975 Y109.676 E0.6745
G1 X77.645 Y106.603 E0.6662
G1 X77.634 Y106.282 E0.0693
G1 X77.642 Y103.437 E0.6131
G1 X77.975 Y100.324 E0.6748
G1 X78.637 Y97.265 E0.6744
G1 X79.620 Y94.294 E0.6745
G1 X80.913 Y91.444 E0.6745
G1 X82.501 Y88.748 E0.6744
