; generated by Slic3r 1.2.9 on 2017-09-08 at 17:49:05

; external perimeters extrusion width = 0.50mm
; perimeters extrusion width = 0.50mm
; infill extrusion width = 0.50mm
; solid infill extrusion width = 0.50mm
; top infill extrusion width = 0.50mm

M107
M190 S57 ; set bed temperature
G28 ; home all axes
M83;
G10 P0 S195 R160                       ; Set tool 0 operating and standby temperatures
T0

G21 ; set units to millimeters
G90 ; use absolute coordinates
M83 ; use relative distances for extrusion
G1 E-3.50000 F2400.00000
G1 Z0.300 F9000.000
G1 X78.530 Y84.902 F9000.000
G1 E3.50000 F2400.00000
G1 X78.933 Y84.553 E0.04890 F1200.000
G1 X79.304 Y84.276 E0.04254
G1 X79.753 Y83.987 E0.04890
G1 X80.160 Y83.765 E0.04254
G1 X80.644 Y83.544 E0.04890
G1 X81.079 Y83.382 E0.04254
G1 X81.598 Y83.230 E0.04964
G1 X82.043 Y83.133 E0.04180
G1 X82.571 Y83.057 E0.04888
G1 X83.033 Y83.024 E0.04256
G1 X116.966 Y83.024 E3.11331
G1 X117.429 Y83.057 E0.04261 F1200.000
G1 X117.957 Y83.133 E0.04890
G1 X118.410 Y83.232 E0.04254
G1 X118.921 Y83.382 E0.04890
G1 X119.356 Y83.544 E0.04254
G1 X119.848 Y83.769 E0.04965
G1 X120.247 Y83.987 E0.04179
G1 X120.695 Y84.275 E0.04888
G1 X121.067 Y84.553 E0.04257
G1 X121.469 Y84.902 E0.04887
G1 X121.798 Y85.230 E0.04257
G1 X122.152 Y85.640 E0.04965
G1 X122.424 Y86.004 E0.04179
G1 X122.713 Y86.453 E0.04890
G1 X122.935 Y86.860 E0.04254
G1 X123.156 Y87.345 E0.04891
G1 X123.318 Y87.779 E0.04254
G1 X123.468 Y88.290 E0.04883
G1 X123.567 Y88.743 E0.04261
G1 X123.643 Y89.271 E0.04890
G1 X123.686 Y90.002 E0.06716
G1 X123.686 Y113.250 E2.13304
G1 X123.291 Y114.921 E0.15755
G1 X122.190 Y116.239 E0.15755
G1 X119.950 Y116.986 E0.21667
G1 X80.050 Y116.986 E3.66085
G1 X78.379 Y116.591 E0.15755
G1 X77.061 Y115.490 E0.15755
G1 X76.314 Y113.250 E0.21667
G1 X76.314 Y90.002 E2.13304
G1 X76.357 Y89.271 E0.06717
G1 X76.433 Y88.743 E0.04890
G1 X76.532 Y88.290 E0.04254
G1 X76.682 Y87.779 E0.04889
G1 X76.844 Y87.344 E0.04256
G1 X77.065 Y86.860 E0.04890
G1 X77.287 Y86.453 E0.04254
G1 X77.575 Y86.004 E0.04888
G1 X77.853 Y85.633 E0.04256
G1 X78.202 Y85.230 E0.04890
G1 X78.477 Y84.955 E0.03566
G1 E-3.50000 F2400.00000
G1 X117.223 Y99.131 F9000.000
G1 E3.50000 F2400.00000
G1 X116.843 Y99.335 E0.03961 F900.000
G1 X116.430 Y99.460 E0.03961
G1 X116.000 Y99.502 E0.03961
G1 X115.570 Y99.460 E0.03961
G1 X115.157 Y99.335 E0.03961
G1 X114.777 Y99.131 E0.03961
G1 X114.443 Y98.857 E0.03961
G1 X114.169 Y98.523 E0.03961
G1 X113.965 Y98.143 E0.03961
G1 X113.840 Y97.730 E0.03961
G1 X113.798 Y97.300 E0.03961
G1 X113.840 Y96.870 E0.03961
G1 X113.965 Y96.457 E0.03961
G1 X114.169 Y96.077 E0.03961
G1 X114.443 Y95.743 E0.03961
G1 X114.777 Y95.469 E0.03961
G1 X115.157 Y95.265 E0.03961
G1 X115.570 Y95.140 E0.03961
G1 X115.976 Y95.100 E0.03737 F900.000
G1 X116.427 Y95.139 E0.04160
G1 X116.843 Y95.265 E0.03982
G1 X117.223 Y95.469 E0.03961
G1 X117.557 Y95.743 E0.03961
G1 X117.831 Y96.077 E0.03961
G1 X118.035 Y96.457 E0.03961
G1 X118.160 Y96.870 E0.03961
G1 X118.202 Y97.300 E0.03961
G1 X118.160 Y97.730 E0.03961
G1 X118.035 Y98.143 E0.03961
G1 X117.831 Y98.523 E0.03961
G1 X117.557 Y98.857 E0.03961
G1 X117.281 Y99.083 E0.03273
G1 X117.238 Y99.563 F9000.000
G1 E-3.50000 F2400.00000
G1 X114.586 Y93.486 F9000.000
G1 E3.50000 F2400.00000
G1 X114.586 Y91.389 E0.19234 F900.000
G1 X115.146 Y91.949 E0.07266
G1 X115.618 Y92.246 E0.05122
G1 X116.145 Y92.431 E0.05122
G1 X116.700 Y92.493 E0.05122
G1 X117.255 Y92.431 E0.05122
G1 X117.787 Y92.244 E0.05170
G1 X118.267 Y91.936 E0.05238
G1 X118.814 Y91.389 E0.07099
G1 X118.814 Y96.115 E0.43361
G1 X118.080 Y95.220 E0.10623
G1 X117.634 Y94.854 E0.05290
G1 X117.126 Y94.583 E0.05290
G1 X116.568 Y94.413 E0.05351
G1 X115.971 Y94.361 E0.05489
G1 X115.426 Y94.415 E0.05027
G1 X114.874 Y94.583 E0.05290
G1 X114.366 Y94.854 E0.05290
G1 X113.920 Y95.220 E0.05290
G1 X113.554 Y95.666 E0.05290
G1 X113.283 Y96.174 E0.05290
G1 X113.115 Y96.726 E0.05290
G1 X113.059 Y97.300 E0.05290
G1 X113.115 Y97.874 E0.05290
G1 X113.283 Y98.426 E0.05290
G1 X113.554 Y98.934 E0.05290
G1 X113.920 Y99.380 E0.05290
G1 X114.366 Y99.746 E0.05290
G1 X114.874 Y100.017 E0.05290
G1 X115.426 Y100.185 E0.05290
G1 X116.000 Y100.241 E0.05290
G1 X116.574 Y100.185 E0.05290
G1 X117.126 Y100.017 E0.05290
G1 X117.634 Y99.746 E0.05290
G1 X118.080 Y99.380 E0.05290
G1 X118.814 Y98.485 E0.10623
G1 X118.814 Y107.954 E0.86878
G1 X118.433 Y108.006 E0.03533
G1 X118.317 Y107.592 E0.03943
G1 X117.939 Y106.496 E0.10633
G1 X117.496 Y105.426 E0.10634
G1 X116.988 Y104.384 E0.10634
G1 X116.419 Y103.374 E0.10634
G1 X115.790 Y102.401 E0.10634
G1 X115.137 Y101.514 E0.10105
G1 X114.362 Y100.578 E0.11145
G1 X113.567 Y99.733 E0.10649
G1 X112.723 Y98.939 E0.10633
G1 X111.832 Y98.197 E0.10634
G1 X110.899 Y97.510 E0.10634
G1 X109.926 Y96.881 E0.10634
G1 X108.916 Y96.311 E0.10634
G1 X107.926 Y95.829 E0.10106
G1 X106.805 Y95.361 E0.11145
G1 X105.708 Y94.983 E0.10649
G1 X104.647 Y94.687 E0.10106
G1 X103.460 Y94.428 E0.11145
G1 X102.313 Y94.254 E0.10649
G1 X101.158 Y94.149 E0.10634
G1 X100.000 Y94.114 E0.10633
G1 X98.842 Y94.149 E0.10634
G1 X97.687 Y94.254 E0.10634
G1 X96.542 Y94.428 E0.10634
G1 X95.408 Y94.671 E0.10634
G1 X94.292 Y94.983 E0.10634
G1 X93.196 Y95.361 E0.10633
G1 X92.126 Y95.804 E0.10634
G1 X91.084 Y96.311 E0.10634
G1 X90.074 Y96.881 E0.10634
G1 X89.101 Y97.510 E0.10634
G1 X88.168 Y98.197 E0.10633
G1 X87.277 Y98.939 E0.10634
G1 X86.433 Y99.733 E0.10634
G1 X85.639 Y100.577 E0.10634
G1 X84.897 Y101.468 E0.10634
G1 X84.210 Y102.401 E0.10634
G1 X83.581 Y103.374 E0.10634
G1 X83.011 Y104.384 E0.10634
G1 X82.504 Y105.426 E0.10634
G1 X82.061 Y106.496 E0.10634
G1 X81.683 Y107.592 E0.10633
G1 X81.567 Y108.006 E0.03943
G1 X81.186 Y107.954 E0.03533
G1 X81.186 Y98.485 E0.86878
G1 X81.920 Y99.380 E0.10623
G1 X82.366 Y99.746 E0.05290
G1 X82.874 Y100.017 E0.05290
G1 X83.426 Y100.185 E0.05290
G1 X84.000 Y100.241 E0.05290
G1 X84.574 Y100.185 E0.05290
G1 X85.126 Y100.017 E0.05290
G1 X85.634 Y99.746 E0.05290
G1 X86.080 Y99.380 E0.05290
G1 X86.446 Y98.934 E0.05290
G1 X86.717 Y98.426 E0.05290
G1 X86.885 Y97.874 E0.05290
G1 X86.941 Y97.300 E0.05290
G1 X86.885 Y96.726 E0.05290
G1 X86.717 Y96.174 E0.05290
G1 X86.446 Y95.666 E0.05290
G1 X86.080 Y95.220 E0.05290
G1 X85.634 Y94.854 E0.05290
G1 X85.126 Y94.583 E0.05290
G1 X84.568 Y94.413 E0.05351
G1 X83.971 Y94.361 E0.05489
G1 X83.426 Y94.415 E0.05027
G1 X82.874 Y94.583 E0.05290
G1 X82.366 Y94.854 E0.05290
G1 X81.920 Y95.220 E0.05290
G1 X81.186 Y96.115 E0.10623
G1 X81.186 Y91.389 E0.43360
G1 X81.746 Y91.949 E0.07266
G1 X82.218 Y92.246 E0.05122
G1 X82.745 Y92.431 E0.05122
G1 X83.300 Y92.493 E0.05122
G1 X83.855 Y92.431 E0.05122
G1 X84.382 Y92.246 E0.05122
G1 X84.854 Y91.949 E0.05122
G1 X85.414 Y91.389 E0.07266
G1 X85.414 Y93.486 E0.19234
G1 X114.511 Y93.486 E2.66960
G1 X115.828 Y91.509 F9000.000
G1 X115.607 Y91.370 E0.02389 F900.000
G1 X115.330 Y91.093 E0.03601
G1 X115.121 Y90.761 E0.03601
G1 X114.991 Y90.390 E0.03601
G1 X114.947 Y90.000 E0.03601
G1 X114.991 Y89.610 E0.03601
G1 X115.116 Y89.253 E0.03466
G1 X115.328 Y88.908 E0.03717
G1 X115.607 Y88.630 E0.03618
G1 X115.939 Y88.421 E0.03601
G1 X116.310 Y88.291 E0.03601
G1 X116.685 Y88.249 E0.03466 F900.000
G1 X117.088 Y88.290 E0.03717
G1 X117.461 Y88.421 E0.03618
G1 X117.793 Y88.630 E0.03601
G1 X118.070 Y88.907 E0.03601
G1 X118.279 Y89.239 E0.03601
G1 X118.409 Y89.610 E0.03601
G1 X118.453 Y90.000 E0.03601
G1 X118.409 Y90.390 E0.03601
G1 X118.279 Y90.761 E0.03601
G1 X118.070 Y91.093 E0.03601
G1 X117.803 Y91.360 E0.03466
G1 X117.462 Y91.579 E0.03717
G1 X117.090 Y91.709 E0.03618
G1 X116.700 Y91.753 E0.03601
G1 X116.310 Y91.709 E0.03601
G1 X115.891 Y91.549 E0.04114
G1 X115.605 Y91.643 F9000.000
G1 E-3.50000 F2400.00000
G1 X85.053 Y90.000 F9000.000
G1 E3.50000 F2400.00000
G1 X85.009 Y90.390 E0.03601 F900.000
G1 X84.879 Y90.761 E0.03601
G1 X84.670 Y91.093 E0.03601
G1 X84.393 Y91.370 E0.03601
G1 X84.061 Y91.579 E0.03601
G1 X83.690 Y91.709 E0.03601
G1 X83.300 Y91.753 E0.03601
G1 X82.910 Y91.709 E0.03601
G1 X82.539 Y91.579 E0.03601
G1 X82.207 Y91.370 E0.03601
G1 X81.940 Y91.103 E0.03466
G1 X81.721 Y90.762 E0.03717
G1 X81.591 Y90.390 E0.03618
G1 X81.547 Y90.000 E0.03601
G1 X81.591 Y89.610 E0.03601
G1 X81.721 Y89.239 E0.03601
G1 X81.930 Y88.907 E0.03601
G1 X82.207 Y88.630 E0.03601
G1 X82.539 Y88.421 E0.03601
G1 X82.910 Y88.291 E0.03601
G1 X83.285 Y88.249 E0.03466 F900.000
G1 X83.688 Y88.290 E0.03717
G1 X84.061 Y88.421 E0.03618
G1 X84.393 Y88.630 E0.03601
G1 X84.670 Y88.907 E0.03601
G1 X84.879 Y89.239 E0.03601
G1 X85.009 Y89.610 E0.03601
G1 X85.044 Y89.925 E0.02913
G1 X85.385 Y90.209 F9000.000
G1 X84.427 Y95.139 F9000.000
G1 X84.843 Y95.265 E0.03982 F900.000
G1 X85.223 Y95.469 E0.03961
G1 X85.557 Y95.743 E0.03961
G1 X85.831 Y96.077 E0.03961
G1 X86.035 Y96.457 E0.03961
G1 X86.160 Y96.870 E0.03961
G1 X86.202 Y97.300 E0.03961
G1 X86.160 Y97.730 E0.03961
G1 X86.035 Y98.143 E0.03961
G1 X85.831 Y98.523 E0.03961
G1 X85.557 Y98.857 E0.03961
G1 X85.223 Y99.131 E0.03961
G1 X84.843 Y99.335 E0.03961
G1 X84.430 Y99.460 E0.03961
G1 X84.000 Y99.502 E0.03961
G1 X83.570 Y99.460 E0.03961
G1 X83.157 Y99.335 E0.03961
G1 X82.777 Y99.131 E0.03961
G1 X82.443 Y98.857 E0.03961
G1 X82.169 Y98.523 E0.03961
G1 X81.965 Y98.143 E0.03961
G1 X81.840 Y97.730 E0.03961
G1 X81.798 Y97.300 E0.03961
G1 X81.840 Y96.870 E0.03961
G1 X81.965 Y96.457 E0.03961
G1 X82.169 Y96.077 E0.03961
G1 X82.443 Y95.743 E0.03961
G1 X82.777 Y95.469 E0.03961
G1 X83.157 Y95.265 E0.03961
G1 X83.570 Y95.140 E0.03961
G1 X83.976 Y95.100 E0.03737 F900.000
G1 X84.353 Y95.133 E0.03472
G1 X84.723 Y94.822 F9000.000
G1 X86.150 Y92.750 F9000.000
G1 X113.850 Y92.750 E2.54149 F900.000
G1 X113.850 Y90.016 E0.25084
G1 X113.880 Y89.595 E0.03877
G1 X113.967 Y89.197 E0.03729
G1 X114.109 Y88.817 E0.03729
G1 X114.303 Y88.460 E0.03729
G1 X114.547 Y88.134 E0.03729
G1 X114.834 Y87.847 E0.03729
G1 X115.160 Y87.603 E0.03729
G1 X115.517 Y87.409 E0.03729
G1 X115.897 Y87.267 E0.03729
G1 X116.294 Y87.180 E0.03725
G1 X116.708 Y87.152 E0.03804
G1 X117.105 Y87.180 E0.03659
G1 X117.503 Y87.267 E0.03729
G1 X117.883 Y87.409 E0.03729
G1 X118.240 Y87.603 E0.03729
G1 X118.565 Y87.847 E0.03725
G1 X118.858 Y88.141 E0.03804
G1 X119.097 Y88.460 E0.03659
G1 X119.291 Y88.817 E0.03729
G1 X119.433 Y89.197 E0.03729
G1 X119.520 Y89.595 E0.03729
G1 X119.550 Y90.016 E0.03877
G1 X119.550 Y112.850 E2.09502
G1 X118.437 Y112.850 E0.10215
G1 X118.417 Y112.186 E0.06095
G1 X118.316 Y111.076 E0.10226
G1 X118.148 Y109.974 E0.10226
G1 X117.914 Y108.885 E0.10226
G1 X117.615 Y107.811 E0.10226
G1 X117.251 Y106.757 E0.10226
G1 X116.825 Y105.728 E0.10226
G1 X116.337 Y104.726 E0.10226
G1 X115.789 Y103.755 E0.10226
G1 X115.184 Y102.819 E0.10226
G1 X114.557 Y101.967 E0.09708
G1 X113.811 Y101.066 E0.10737
G1 X113.046 Y100.254 E0.10231
G1 X112.235 Y99.490 E0.10226
G1 X111.379 Y98.776 E0.10226
G1 X110.481 Y98.116 E0.10226
G1 X109.545 Y97.511 E0.10226
G1 X108.574 Y96.963 E0.10226
G1 X107.623 Y96.500 E0.09708
G1 X106.543 Y96.049 E0.10737
G1 X105.489 Y95.685 E0.10231
G1 X104.470 Y95.401 E0.09708
G1 X103.326 Y95.152 E0.10737
G1 X102.224 Y94.984 E0.10231
G1 X101.114 Y94.883 E0.10226
G1 X100.000 Y94.850 E0.10226
G1 X98.886 Y94.883 E0.10226
G1 X97.776 Y94.984 E0.10226
G1 X96.674 Y95.152 E0.10226
G1 X95.585 Y95.386 E0.10226
G1 X94.511 Y95.685 E0.10226
G1 X93.457 Y96.049 E0.10226
G1 X92.428 Y96.475 E0.10226
G1 X91.426 Y96.963 E0.10226
G1 X90.455 Y97.511 E0.10226
G1 X89.519 Y98.116 E0.10226
G1 X88.621 Y98.776 E0.10226
G1 X87.765 Y99.490 E0.10226
G1 X86.954 Y100.254 E0.10226
G1 X86.190 Y101.065 E0.10226
G1 X85.476 Y101.921 E0.10226
G1 X84.816 Y102.819 E0.10226
G1 X84.211 Y103.755 E0.10226
G1 X83.663 Y104.726 E0.10226
G1 X83.175 Y105.728 E0.10226
G1 X82.749 Y106.757 E0.10226
G1 X82.385 Y107.811 E0.10226
G1 X82.086 Y108.885 E0.10226
G1 X81.852 Y109.974 E0.10226
G1 X81.684 Y111.076 E0.10226
G1 X81.583 Y112.186 E0.10226
G1 X81.563 Y112.850 E0.06095
G1 X80.450 Y112.850 E0.10215
G1 X80.450 Y90.016 E2.09502
G1 X80.480 Y89.595 E0.03877
G1 X80.567 Y89.197 E0.03729
G1 X80.709 Y88.817 E0.03729
G1 X80.903 Y88.460 E0.03729
G1 X81.147 Y88.134 E0.03729
G1 X81.434 Y87.847 E0.03729
G1 X81.760 Y87.603 E0.03729
G1 X82.117 Y87.409 E0.03729
G1 X82.497 Y87.267 E0.03729
G1 X82.895 Y87.180 E0.03729
G1 X83.300 Y87.151 E0.03729
G1 X83.705 Y87.180 E0.03729
G1 X84.103 Y87.267 E0.03729
G1 X84.483 Y87.409 E0.03729
G1 X84.840 Y87.603 E0.03729
G1 X85.166 Y87.847 E0.03729
G1 X85.453 Y88.134 E0.03729
G1 X85.697 Y88.460 E0.03729
G1 X85.891 Y88.817 E0.03729
G1 X86.033 Y89.197 E0.03729
G1 X86.120 Y89.595 E0.03729
G1 X86.150 Y90.016 E0.03877
G1 X86.150 Y92.675 E0.24396
G1 X86.150 Y93.250 F9000.000
G1 X85.079 Y91.175 F9000.000
G1 X85.265 Y90.940 E0.02756 F600.000
G1 X85.580 Y90.417 E0.05592
G1 X85.601 Y90.020 E0.03651
G1 X85.572 Y89.673 E0.03193
G1 X85.503 Y89.353 E0.03005
G1 X85.381 Y89.020 E0.03255
G1 X85.230 Y88.759 E0.02761
G1 X85.036 Y88.495 E0.03006
G1 X84.749 Y88.215 E0.03685
G1 X84.541 Y88.070 E0.02330
G1 X84.280 Y87.919 E0.02761
G1 X83.947 Y87.797 E0.03255
G1 X83.627 Y87.729 E0.03005
G1 X83.300 Y87.700 E0.03008
G1 X82.973 Y87.728 E0.03008
G1 X82.653 Y87.797 E0.03005
G1 X82.320 Y87.919 E0.03255
G1 X82.059 Y88.070 E0.02761
G1 X81.851 Y88.215 E0.02330
G1 X81.564 Y88.495 E0.03685
G1 X81.370 Y88.759 E0.03006
G1 X81.219 Y89.020 E0.02761
G1 X81.097 Y89.353 E0.03255
G1 X81.028 Y89.673 E0.03005
G1 X80.999 Y90.020 E0.03193
G1 X81.020 Y90.417 E0.03651
G1 X81.337 Y90.943 E0.05625
G1 X81.527 Y91.180 E0.02790
G1 X81.619 Y94.309 F9000.000
G1 X81.997 Y94.687 E0.05589 F900.000
G1 X82.733 Y94.235 E0.09045
G1 X81.619 Y93.122 E0.16493
G1 X82.551 Y92.866 E0.10118
G1 X83.658 Y93.973 E0.16399
G1 X84.863 Y93.990 E0.12621
G1 X83.735 Y92.862 E0.16701
G1 X84.603 Y92.543 E0.09688
G1 X84.981 Y92.920 E0.05594
G1 X85.796 Y93.935 F9000.000
G1 X88.984 Y97.122 E0.47214 F900.000
G1 X89.678 Y96.673 E0.08664
G1 X86.940 Y93.935 E0.40562
G1 X88.084 Y93.935 E0.11979
G1 X90.397 Y96.248 E0.34266
G1 X91.137 Y95.844 E0.08830
G1 X89.227 Y93.935 E0.28287
G1 X90.371 Y93.935 E0.11979
G1 X91.906 Y95.470 E0.22739
G1 X92.708 Y95.128 E0.09132
G1 X91.515 Y93.935 E0.17681
G1 X92.658 Y93.935 E0.11979
G1 X93.015 Y94.291 E0.05280
G1 X87.342 Y96.625 F9000.000
G1 X88.321 Y97.603 E0.14497 F900.000
G1 X87.678 Y98.104 E0.08537
G1 X87.333 Y97.759 E0.05104
G1 X93.508 Y94.345 F9000.000
G1 X95.456 Y94.061 E0.37710 F600.000
G1 X95.457 Y94.067 F9000.000
G1 X96.459 Y93.960 E0.09249 F600.000
G1 X97.580 Y93.876 E0.10311
G1 X102.420 Y93.876 F9000.000
G1 X103.543 Y93.961 E0.10331 F600.000
G1 X104.540 Y94.068 E0.09200
G1 X104.540 Y94.068 F9000.000
G1 X105.924 Y94.250 E0.26731 F600.000
G1 X106.492 Y94.345 E0.11042
G1 X106.879 Y94.613 F9000.000
G1 X107.246 Y94.980 E0.06214 F900.000
G1 X109.341 Y95.925 F9000.000
G1 X107.351 Y93.935 E0.33733 F900.000
G1 X108.501 Y93.935 E0.13788
G1 X112.652 Y98.086 E0.70344
G1 X112.657 Y96.940 E0.13728
G1 X109.652 Y93.935 E0.50929
G1 X110.803 Y93.935 E0.13788
G1 X112.908 Y96.040 E0.35673
G1 X113.339 Y95.321 E0.10050
G1 X111.953 Y93.935 E0.23483
G1 X113.104 Y93.935 E0.13788
G1 X113.904 Y94.735 E0.13556
G1 X114.254 Y93.935 E0.10466
G1 X114.601 Y94.282 E0.05878
G1 X115.399 Y94.016 F9000.000
G1 X115.018 Y93.634 E0.06460 F900.000
G1 X115.464 Y92.721 E0.12176
G1 X116.719 Y93.976 E0.21273
G1 X118.382 Y94.280 E0.20255
G1 X116.980 Y92.879 E0.23757
G1 X118.002 Y92.542 E0.12896
G1 X118.382 Y92.922 E0.06434
G1 X118.479 Y91.175 F9000.000
G1 X118.665 Y90.940 E0.02756 F600.000
G1 X118.980 Y90.417 E0.05592
G1 X119.001 Y90.020 E0.03651
G1 X118.972 Y89.673 E0.03193
G1 X118.903 Y89.353 E0.03005
G1 X118.781 Y89.020 E0.03255
G1 X118.630 Y88.759 E0.02761
G1 X118.441 Y88.501 E0.02942
G1 X118.149 Y88.215 E0.03749
G1 X117.941 Y88.070 E0.02330
G1 X117.680 Y87.919 E0.02761
G1 X117.347 Y87.797 E0.03255
G1 X117.027 Y87.729 E0.03005
G1 X116.702 Y87.700 E0.02988
G1 X116.372 Y87.728 E0.03038
G1 X116.053 Y87.797 E0.02994
G1 X115.720 Y87.919 E0.03255
G1 X115.459 Y88.070 E0.02761
G1 X115.251 Y88.215 E0.02330
G1 X114.964 Y88.495 E0.03685
G1 X114.770 Y88.760 E0.03006
G1 X114.630 Y89.001 E0.02559
G1 X114.497 Y89.353 E0.03454
G1 X114.428 Y89.673 E0.03005
