; G-Code generated by Simplify3D(R) Version 4.0.0
; Sep 20, 2017 at 2:51:25 PM
; Settings Summary
;   processName,ABS
;   applyToModels,Dichtungshalter_mit_Rand,Dichtungshalter_ohne_Rand,Dichtungshalter_mit_Rand(2),Dichtungshalter_ohne_Rand(2)
;   profileName,RepRapPro Ormerod 2 (modified)
;   profileVersion,2017-01-15 15:08:51
;   baseProfile,Default
;   printMaterial,ABS
;   printQuality,Medium
;   printExtruders,Extruder 1 Only
;   extruderName,Extruder 1,Extruder 2
;   extruderToolheadNumber,0,1
;   extruderDiameter,0.5,0.5
;   extruderAutoWidth,1,1
;   extruderWidth,0.6,0.6
;   extrusionMultiplier,0.8,0.87
;   extruderUseRetract,1,1
;   extruderRetractionDistance,3,3
;   extruderExtraRestartDistance,0,0
;   extruderRetractionZLift,0,0
;   extruderRetractionSpeed,3600,3600
;   extruderUseCoasting,0,0
;   extruderCoastingDistance,0.2,0.2
;   extruderUseWipe,0,0
;   extruderWipeDistance,5,5
;   primaryExtruder,0
;   layerHeight,0.24
;   topSolidLayers,3
;   bottomSolidLayers,3
;   perimeterOutlines,2
;   printPerimetersInsideOut,1
;   startPointOption,2
;   startPointOriginX,0
;   startPointOriginY,0
;   sequentialIslands,0
;   spiralVaseMode,0
;   firstLayerHeightPercentage,200
;   firstLayerWidthPercentage,200
;   firstLayerUnderspeed,0.33
;   useRaft,0
;   raftExtruder,0
;   raftTopLayers,3
;   raftBaseLayers,2
;   raftOffset,3
;   raftSeparationDistance,0.14
;   raftTopInfill,100
;   aboveRaftSpeedMultiplier,0.3
;   useSkirt,1
;   skirtExtruder,0
;   skirtLayers,1
;   skirtOutlines,2
;   skirtOffset,2
;   usePrimePillar,0
;   primePillarExtruder,999
;   primePillarWidth,12
;   primePillarLocation,7
;   primePillarSpeedMultiplier,1
;   useOozeShield,0
;   oozeShieldExtruder,999
;   oozeShieldOffset,2
;   oozeShieldOutlines,1
;   oozeShieldSidewallShape,1
;   oozeShieldSidewallAngle,30
;   oozeShieldSpeedMultiplier,1
;   infillExtruder,0
;   internalInfillPattern,Rectilinear
;   externalInfillPattern,Rectilinear
;   infillPercentage,20
;   outlineOverlapPercentage,15
;   infillExtrusionWidthPercentage,100
;   minInfillLength,5
;   infillLayerInterval,1
;   internalInfillAngles,45,-45
;   overlapInternalInfillAngles,0
;   externalInfillAngles,45,-45
;   generateSupport,1
;   supportExtruder,0
;   supportInfillPercentage,30
;   supportExtraInflation,0
;   supportBaseLayers,0
;   denseSupportExtruder,0
;   denseSupportLayers,0
;   denseSupportInfillPercentage,70
;   supportLayerInterval,1
;   supportHorizontalPartOffset,0.3
;   supportUpperSeparationLayers,1
;   supportLowerSeparationLayers,1
;   supportType,0
;   supportGridSpacing,4
;   maxOverhangAngle,45
;   supportAngles,0
;   temperatureName,Extruder 1,Extruder 2,Heated Bed
;   temperatureNumber,0,1,0
;   temperatureSetpointCount,1,1,1
;   temperatureSetpointLayers,1,1,1
;   temperatureSetpointTemperatures,235,0,110
;   temperatureStabilizeAtStartup,1,0,1
;   temperatureHeatedBed,0,0,1
;   temperatureRelayBetweenLayers,0,0,0
;   temperatureRelayBetweenLoops,0,0,0
;   fanLayers,1
;   fanSpeeds,35
;   blipFanToFullPower,0
;   adjustSpeedForCooling,1
;   minSpeedLayerTime,10
;   minCoolingSpeedSlowdown,20
;   increaseFanForCooling,1
;   minFanLayerTime,30
;   maxCoolingFanSpeed,67
;   increaseFanForBridging,1
;   bridgingFanSpeed,65
;   use5D,1
;   relativeEdistances,1
;   allowEaxisZeroing,0
;   independentExtruderAxes,0
;   includeM10123,0
;   stickySupport,1
;   applyToolheadOffsets,0
;   gcodeXoffset,0
;   gcodeYoffset,0
;   gcodeZoffset,0
;   overrideMachineDefinition,1
;   machineTypeOverride,0
;   strokeXoverride,214
;   strokeYoverride,210
;   strokeZoverride,1000
;   originOffsetXoverride,0
;   originOffsetYoverride,0
;   originOffsetZoverride,0
;   homeXdirOverride,-1
;   homeYdirOverride,-1
;   homeZdirOverride,-1
;   flipXoverride,1
;   flipYoverride,-1
;   flipZoverride,1
;   toolheadOffsets,0,0|0,0|0,0|0,0|0,0|0,0
;   overrideFirmwareConfiguration,1
;   firmwareTypeOverride,RepRap (Marlin/Repetier/Sprinter)
;   GPXconfigOverride,r2
;   baudRateOverride,115200
;   overridePrinterModels,0
;   printerModelsOverride
;   startingGcode,G1 X210 Y40 F9000
;   layerChangeGcode,
;   retractionGcode,
;   toolChangeGcode,
;   endingGcode,G1 E-10 F2400,G91,G1 X5 Y5 F6000,G1 Z5 F360,G90,G1 X0 Y206 F6000,M0
;   exportFileFormat,gcode
;   celebration,0
;   celebrationSong,Random Song
;   postProcessing,
;   defaultSpeed,3600
;   outlineUnderspeed,0.75
;   solidInfillUnderspeed,1
;   supportUnderspeed,0.65
;   rapidXYspeed,12000
;   rapidZspeed,360
;   minBridgingArea,50
;   bridgingExtraInflation,0
;   bridgingExtrusionMultiplier,0.98
;   bridgingSpeedMultiplier,0.5
;   useFixedBridgingAngle,0
;   fixedBridgingAngle,0
;   applyBridgingToPerimeters,0
;   filamentDiameters,1.75|1.75|1.75|1.75|1.75|1.75
;   filamentPricesPerKg,30|30|30|30|30|30
;   filamentDensities,1.25|1.25|1.25|1.25|1.25|1.25
;   useMinPrintHeight,0
;   minPrintHeight,0
;   useMaxPrintHeight,0
;   maxPrintHeight,0
;   useDiaphragm,0
;   diaphragmLayerInterval,20
;   robustSlicing,1
;   mergeAllIntoSolid,0
;   onlyRetractWhenCrossingOutline,1
;   retractBetweenLayers,1
;   useRetractionMinTravel,1
;   retractionMinTravel,2
;   retractWhileWiping,0
;   onlyWipeOutlines,1
;   avoidCrossingOutline,0
;   maxMovementDetourFactor,3
;   toolChangeRetractionDistance,12
;   toolChangeExtraRestartDistance,-0.5
;   toolChangeRetractionSpeed,600
;   externalThinWallType,0
;   internalThinWallType,2
;   thinWallAllowedOverlapPercentage,10
;   singleExtrusionMinLength,1
;   singleExtrusionMinPrintingWidthPercentage,50
;   singleExtrusionMaxPrintingWidthPercentage,200
;   singleExtrusionEndpointExtension,0.2
;   horizontalSizeCompensation,0
G90
M83
M106 S89
M140 S110
M190 S110
M104 S235 T0
M104 S0 T1
M109 S235 T0
G1 X210 Y40 F9000
G1 E-3.0000 F3600
G1 Z0.480 F360
; process ABS
; layer 1, Z = 0.480
T0
; tool H0.480 W1.200
; skirt
G1 X82.258 Y58.785 F12000
G1 E3.0000 F1080
G1 X82.270 Y58.759 E0.0056 F1188
G1 X82.573 Y58.145 E0.1310
G1 X82.587 Y58.119 E0.0056
G1 X82.667 Y57.981 E0.0307
G1 X82.682 Y57.956 E0.0056
G1 X83.062 Y57.387 E0.1310
G1 X83.079 Y57.363 E0.0056
G1 X83.177 Y57.236 E0.0307
G1 X83.196 Y57.213 E0.0056
G1 X83.646 Y56.699 E0.1310
G1 X83.667 Y56.678 E0.0056
G1 X83.780 Y56.564 E0.0307
G1 X83.802 Y56.544 E0.0056
G1 X84.315 Y56.093 E0.1310
G1 X84.338 Y56.075 E0.0056
G1 X84.465 Y55.977 E0.0307
G1 X84.489 Y55.960 E0.0056
G1 X85.058 Y55.580 E0.1310
G1 X85.083 Y55.565 E0.0056
G1 X85.222 Y55.484 E0.0307
G1 X85.248 Y55.470 E0.0056
G1 X85.861 Y55.168 E0.1310
G1 X85.888 Y55.156 E0.0056
G1 X86.036 Y55.095 E0.0307
G1 X86.063 Y55.084 E0.0056
G1 X86.711 Y54.864 E0.1310
G1 X86.739 Y54.856 E0.0056
G1 X86.894 Y54.814 E0.0307
G1 X86.923 Y54.808 E0.0056
G1 X87.593 Y54.674 E0.1310
G1 X87.622 Y54.669 E0.0056
G1 X87.781 Y54.649 E0.0307
G1 X87.811 Y54.646 E0.0056
G1 X88.453 Y54.604 E0.1233
G1 X88.467 Y54.603 E0.0028
G1 X88.548 Y54.600 E0.0154
G1 X88.562 Y54.600 E0.0028
G1 X90.642 Y54.600 E0.3985
G1 X90.657 Y54.600 E0.0028
G1 X90.737 Y54.603 E0.0154
G1 X90.752 Y54.604 E0.0028
G1 X91.394 Y54.646 E0.1233
G1 X91.423 Y54.649 E0.0056
G1 X91.582 Y54.669 E0.0307
G1 X91.612 Y54.674 E0.0056
G1 X92.282 Y54.808 E0.1310
G1 X92.311 Y54.814 E0.0056
G1 X92.466 Y54.856 E0.0307
G1 X92.494 Y54.864 E0.0056
G1 X93.141 Y55.084 E0.1310
G1 X93.169 Y55.095 E0.0056
G1 X93.317 Y55.156 E0.0307
G1 X93.344 Y55.168 E0.0056
G1 X93.957 Y55.470 E0.1310
G1 X93.983 Y55.484 E0.0056
G1 X94.122 Y55.565 E0.0307
G1 X94.147 Y55.580 E0.0056
G1 X94.715 Y55.960 E0.1310
G1 X94.739 Y55.977 E0.0056
G1 X94.866 Y56.075 E0.0307
G1 X94.889 Y56.093 E0.0056
G1 X95.403 Y56.544 E0.1310
G1 X95.425 Y56.564 E0.0056
G1 X95.538 Y56.678 E0.0307
G1 X95.558 Y56.699 E0.0056
G1 X96.009 Y57.213 E0.1310
G1 X96.028 Y57.236 E0.0056
G1 X96.125 Y57.363 E0.0307
G1 X96.142 Y57.387 E0.0056
G1 X96.522 Y57.956 E0.1310
G1 X96.538 Y57.981 E0.0056
G1 X96.618 Y58.119 E0.0307
G1 X96.632 Y58.145 E0.0056
G1 X96.934 Y58.759 E0.1310
G1 X96.946 Y58.785 E0.0056
G1 X97.008 Y58.934 E0.0307
G1 X97.018 Y58.961 E0.0056
G1 X97.238 Y59.608 E0.1310
G1 X97.246 Y59.637 E0.0056
G1 X97.288 Y59.792 E0.0307
G1 X97.295 Y59.820 E0.0056
G1 X97.428 Y60.491 E0.1310
G1 X97.433 Y60.520 E0.0056
G1 X97.454 Y60.679 E0.0307
G1 X97.457 Y60.708 E0.0056
G1 X97.499 Y61.350 E0.1233
G1 X97.499 Y61.365 E0.0028
G1 X97.502 Y61.445 E0.0154
G1 X97.502 Y61.460 E0.0028
G1 X97.502 Y65.558 E0.7851
G1 X97.797 Y65.699 E0.0626
G1 X97.811 Y65.706 E0.0030
G1 X97.887 Y65.746 E0.0165
G1 X97.901 Y65.754 E0.0030
G1 X98.885 Y66.313 E0.2169
G1 X98.899 Y66.321 E0.0030
G1 X98.972 Y66.366 E0.0165
G1 X98.985 Y66.375 E0.0030
G1 X99.928 Y67.002 E0.2168
G1 X99.941 Y67.010 E0.0030
G1 X100.011 Y67.061 E0.0165
G1 X100.023 Y67.070 E0.0030
G1 X100.919 Y67.762 E0.2169
G1 X100.932 Y67.772 E0.0030
G1 X100.998 Y67.826 E0.0165
G1 X101.010 Y67.837 E0.0030
G1 X101.855 Y68.589 E0.2169
G1 X101.867 Y68.600 E0.0030
G1 X101.929 Y68.660 E0.0165
G1 X101.940 Y68.671 E0.0030
G1 X102.731 Y69.481 E0.2168
G1 X102.742 Y69.492 E0.0030
G1 X102.800 Y69.556 E0.0165
G1 X102.810 Y69.568 E0.0030
G1 X103.542 Y70.431 E0.2169
G1 X103.552 Y70.444 E0.0030
G1 X103.605 Y70.511 E0.0165
G1 X103.615 Y70.524 E0.0030
G1 X104.284 Y71.437 E0.2168
G1 X104.293 Y71.449 E0.0030
G1 X104.341 Y71.521 E0.0165
G1 X104.350 Y71.534 E0.0030
G1 X104.954 Y72.491 E0.2169
G1 X104.962 Y72.505 E0.0030
G1 X105.005 Y72.579 E0.0165
G1 X105.013 Y72.593 E0.0030
G1 X105.548 Y73.590 E0.2169
G1 X105.555 Y73.604 E0.0030
G1 X105.593 Y73.682 E0.0165
G1 X105.600 Y73.696 E0.0030
G1 X106.063 Y74.729 E0.2168
G1 X106.070 Y74.743 E0.0030
G1 X106.102 Y74.823 E0.0165
G1 X106.108 Y74.837 E0.0030
G1 X106.498 Y75.900 E0.2169
G1 X106.503 Y75.915 E0.0030
G1 X106.530 Y75.997 E0.0165
G1 X106.535 Y76.012 E0.0030
G1 X106.849 Y77.099 E0.2169
G1 X106.853 Y77.114 E0.0030
G1 X106.874 Y77.198 E0.0165
G1 X106.878 Y77.213 E0.0030
G1 X107.000 Y77.781 E0.1113
G1 X107.117 Y77.231 E0.1077
G1 X107.121 Y77.216 E0.0030
G1 X107.142 Y77.133 E0.0165
G1 X107.146 Y77.117 E0.0030
G1 X107.459 Y76.030 E0.2169
G1 X107.464 Y76.015 E0.0030
G1 X107.491 Y75.933 E0.0165
G1 X107.496 Y75.918 E0.0030
G1 X107.885 Y74.855 E0.2168
G1 X107.890 Y74.840 E0.0030
G1 X107.923 Y74.761 E0.0165
G1 X107.929 Y74.746 E0.0030
G1 X108.392 Y73.713 E0.2169
G1 X108.398 Y73.698 E0.0030
G1 X108.436 Y73.621 E0.0165
G1 X108.443 Y73.607 E0.0030
G1 X108.977 Y72.609 E0.2169
G1 X108.985 Y72.595 E0.0030
G1 X109.028 Y72.521 E0.0165
G1 X109.036 Y72.507 E0.0030
G1 X109.639 Y71.549 E0.2169
G1 X109.648 Y71.536 E0.0030
G1 X109.696 Y71.465 E0.0165
G1 X109.705 Y71.452 E0.0030
G1 X110.374 Y70.538 E0.2170
G1 X110.384 Y70.525 E0.0031
G1 X110.437 Y70.457 E0.0167
G1 X110.448 Y70.444 E0.0031
G1 X111.189 Y69.569 E0.2199
G1 X111.200 Y69.557 E0.0030
G1 X111.257 Y69.494 E0.0163
G1 X111.268 Y69.482 E0.0030
G1 X112.046 Y68.683 E0.2137
G1 X112.057 Y68.672 E0.0030
G1 X112.119 Y68.613 E0.0164
G1 X112.131 Y68.602 E0.0030
G1 X112.975 Y67.849 E0.2168
G1 X112.987 Y67.838 E0.0030
G1 X113.053 Y67.783 E0.0165
G1 X113.066 Y67.773 E0.0030
G1 X113.961 Y67.081 E0.2169
G1 X113.974 Y67.071 E0.0030
G1 X114.044 Y67.021 E0.0165
G1 X114.057 Y67.012 E0.0030
G1 X114.998 Y66.384 E0.2169
G1 X115.012 Y66.376 E0.0030
G1 X115.085 Y66.330 E0.0165
G1 X115.098 Y66.322 E0.0030
G1 X116.082 Y65.762 E0.2169
G1 X116.096 Y65.754 E0.0030
G1 X116.172 Y65.715 E0.0165
G1 X116.186 Y65.707 E0.0030
G1 X116.498 Y65.558 E0.0662
G1 X116.498 Y61.460 E0.7851
G1 X116.498 Y61.445 E0.0028
G1 X116.501 Y61.365 E0.0154
G1 X116.501 Y61.350 E0.0028
G1 X116.543 Y60.708 E0.1233
G1 X116.546 Y60.679 E0.0056
G1 X116.567 Y60.520 E0.0307
G1 X116.572 Y60.491 E0.0056
G1 X116.705 Y59.820 E0.1310
G1 X116.712 Y59.792 E0.0056
G1 X116.754 Y59.637 E0.0307
G1 X116.762 Y59.608 E0.0056
G1 X116.982 Y58.961 E0.1310
G1 X116.992 Y58.934 E0.0056
G1 X117.054 Y58.785 E0.0307
G1 X117.066 Y58.759 E0.0056
G1 X117.368 Y58.145 E0.1310
G1 X117.382 Y58.119 E0.0056
G1 X117.462 Y57.981 E0.0307
G1 X117.478 Y57.956 E0.0056
G1 X117.858 Y57.387 E0.1310
G1 X117.875 Y57.363 E0.0056
G1 X117.972 Y57.236 E0.0307
G1 X117.991 Y57.213 E0.0056
G1 X118.442 Y56.699 E0.1310
G1 X118.462 Y56.678 E0.0056
G1 X118.575 Y56.564 E0.0307
G1 X118.597 Y56.544 E0.0056
G1 X119.111 Y56.093 E0.1310
G1 X119.134 Y56.075 E0.0056
G1 X119.261 Y55.977 E0.0307
G1 X119.285 Y55.960 E0.0056
G1 X119.853 Y55.580 E0.1310
G1 X119.878 Y55.565 E0.0056
G1 X120.017 Y55.484 E0.0307
G1 X120.043 Y55.470 E0.0056
G1 X120.656 Y55.168 E0.1310
G1 X120.683 Y55.156 E0.0056
G1 X120.831 Y55.095 E0.0307
G1 X120.859 Y55.084 E0.0056
G1 X121.506 Y54.864 E0.1310
G1 X121.534 Y54.856 E0.0056
G1 X121.689 Y54.814 E0.0307
G1 X121.718 Y54.808 E0.0056
G1 X122.388 Y54.674 E0.1310
G1 X122.418 Y54.669 E0.0056
G1 X122.577 Y54.649 E0.0307
G1 X122.606 Y54.646 E0.0056
G1 X123.248 Y54.604 E0.1233
G1 X123.263 Y54.603 E0.0028
G1 X123.343 Y54.600 E0.0154
G1 X123.358 Y54.600 E0.0028
G1 X125.438 Y54.600 E0.3985
G1 X125.452 Y54.600 E0.0028
G1 X125.533 Y54.603 E0.0154
G1 X125.547 Y54.604 E0.0028
G1 X126.189 Y54.646 E0.1233
G1 X126.219 Y54.649 E0.0056
G1 X126.378 Y54.669 E0.0307
G1 X126.407 Y54.674 E0.0056
G1 X127.077 Y54.808 E0.1310
G1 X127.106 Y54.814 E0.0056
G1 X127.261 Y54.856 E0.0307
G1 X127.289 Y54.864 E0.0056
G1 X127.937 Y55.084 E0.1310
G1 X127.964 Y55.095 E0.0056
G1 X128.112 Y55.156 E0.0307
G1 X128.139 Y55.168 E0.0056
G1 X128.752 Y55.470 E0.1310
G1 X128.778 Y55.484 E0.0057
G1 X128.917 Y55.565 E0.0307
G1 X128.942 Y55.580 E0.0056
G1 X129.511 Y55.960 E0.1310
G1 X129.535 Y55.977 E0.0056
G1 X129.662 Y56.075 E0.0307
G1 X129.685 Y56.093 E0.0056
G1 X130.198 Y56.544 E0.1310
G1 X130.220 Y56.564 E0.0056
G1 X130.333 Y56.678 E0.0307
G1 X130.354 Y56.699 E0.0056
G1 X130.804 Y57.213 E0.1310
G1 X130.823 Y57.236 E0.0056
G1 X130.921 Y57.363 E0.0307
G1 X130.938 Y57.387 E0.0056
G1 X131.318 Y57.956 E0.1310
G1 X131.333 Y57.981 E0.0056
G1 X131.413 Y58.119 E0.0307
G1 X131.427 Y58.145 E0.0056
G1 X131.730 Y58.759 E0.1310
G1 X131.742 Y58.785 E0.0057
G1 X131.803 Y58.934 E0.0307
G1 X131.814 Y58.961 E0.0056
G1 X132.033 Y59.608 E0.1310
G1 X132.042 Y59.637 E0.0056
G1 X132.083 Y59.792 E0.0307
G1 X132.090 Y59.820 E0.0056
G1 X132.223 Y60.491 E0.1310
G1 X132.228 Y60.520 E0.0056
G1 X132.249 Y60.679 E0.0307
G1 X132.252 Y60.708 E0.0056
G1 X132.294 Y61.350 E0.1233
G1 X132.295 Y61.365 E0.0028
G1 X132.297 Y61.445 E0.0154
G1 X132.298 Y61.460 E0.0028
G1 X132.298 Y65.558 E0.7851
G1 X132.592 Y65.699 E0.0626
G1 X132.606 Y65.706 E0.0030
G1 X132.683 Y65.746 E0.0165
G1 X132.697 Y65.754 E0.0030
G1 X133.681 Y66.313 E0.2169
G1 X133.694 Y66.321 E0.0030
G1 X133.768 Y66.366 E0.0165
G1 X133.781 Y66.375 E0.0030
G1 X134.723 Y67.002 E0.2168
G1 X134.736 Y67.010 E0.0030
G1 X134.806 Y67.061 E0.0165
G1 X134.819 Y67.070 E0.0030
G1 X135.715 Y67.762 E0.2169
G1 X135.727 Y67.772 E0.0030
G1 X135.793 Y67.826 E0.0165
G1 X135.805 Y67.837 E0.0030
G1 X136.651 Y68.589 E0.2168
G1 X136.662 Y68.600 E0.0030
G1 X136.725 Y68.660 E0.0165
G1 X136.736 Y68.671 E0.0030
G1 X137.526 Y69.481 E0.2169
G1 X137.537 Y69.492 E0.0030
G1 X137.595 Y69.556 E0.0165
G1 X137.605 Y69.568 E0.0030
G1 X138.337 Y70.431 E0.2168
G1 X138.347 Y70.444 E0.0030
G1 X138.400 Y70.511 E0.0165
G1 X138.410 Y70.524 E0.0030
G1 X139.079 Y71.437 E0.2168
G1 X139.088 Y71.449 E0.0030
G1 X139.137 Y71.521 E0.0165
G1 X139.145 Y71.534 E0.0030
G1 X139.749 Y72.491 E0.2169
G1 X139.757 Y72.505 E0.0030
G1 X139.801 Y72.579 E0.0165
G1 X139.808 Y72.593 E0.0030
G1 X140.343 Y73.590 E0.2169
G1 X140.351 Y73.605 E0.0030
G1 X140.388 Y73.682 E0.0165
G1 X140.395 Y73.696 E0.0030
G1 X140.859 Y74.729 E0.2168
G1 X140.865 Y74.743 E0.0030
G1 X140.898 Y74.823 E0.0165
G1 X140.903 Y74.838 E0.0030
G1 X141.293 Y75.900 E0.2168
G1 X141.298 Y75.915 E0.0030
G1 X141.325 Y75.997 E0.0165
G1 X141.330 Y76.012 E0.0030
G1 X141.645 Y77.099 E0.2169
G1 X141.649 Y77.115 E0.0030
G1 X141.670 Y77.198 E0.0165
G1 X141.673 Y77.213 E0.0030
G1 X141.911 Y78.320 E0.2168
G1 X141.914 Y78.335 E0.0030
G1 X141.929 Y78.420 E0.0165
G1 X141.931 Y78.436 E0.0030
G1 X142.091 Y79.556 E0.2168
G1 X142.093 Y79.572 E0.0030
G1 X142.102 Y79.658 E0.0165
G1 X142.103 Y79.673 E0.0030
G1 X142.184 Y80.802 E0.2169
G1 X142.184 Y80.818 E0.0030
G1 X142.187 Y80.904 E0.0165
